{"type":"map","version":"1.10","tiledversion":"1.11.0","orientation":"orthogonal","renderorder":"right-down","width":47,"height":14,"tilewidth":32,"tileheight":32,"infinite":false,"nextlayerid":4,"nextobjectid":24,"tilesets":[{"firstgid":1,"name":"tiles","image":"../tiles.png","imagewidth":256,"imageheight":96,"tilewidth":32,"tileheight":32,"tilecount":24,"columns":8,"margin":0,"spacing":0}],"layers":[{"id":1,"name":"back","type":"tilelayer","width":47,"height":14,"data":[0,0,0,0,0,0,0,0,0,0,0,0,0,0,0,0,0,0,0,0,0,0,0,0,0,0,0,0,0,0,0,0,0,0,0,0,0,0,0,0,0,0,0,0,0,0,0,0,0,0,0,0,0,0,0,0,0,0,0,0,0,0,0,0,0,0,0,0,0,0,0,0,0,0,0,0,0,0,0,0,0,0,0,0,0,0,0,0,0,0,0,0,0,0,0,0,0,0,0,0,0,0,0,0,0,0,0,0,0,0,0,0,0,0,0,0,0,0,0,0,0,0,0,0,0,0,0,0,0,0,0,0,0,0,0,0,0,0,0,0,0,0,0,0,0,0,0,0,0,0,0,0,0,0,0,0,0,0,0,0,0,0,0,0,0,0,0,0,0,0,0,0,0,0,0,0,0,0,0,0,0,0,0,0,0,0,0,0,0,0,0,0,0,0,0,0,0,0,0,0,0,0,0,0,0,0,0,0,0,0,0,0,0,0,0,0,0,0,0,0,0,0,0,0,0,0,0,0,0,0,0,0,0,0,0,0,0,0,0,0,0,0,0,0,0,0,0,0,0,0,0,0,0,0,0,0,0,0,0,0,0,0,0,0,0,0,0,0,0,0,0,0,0,0,0,0,0,0,0,0,0,0,0,0,0,0,0,0,0,0,0,0,0,0,0,0,0,0,0,0,0,0,0,0,0,0,0,0,0,0,0,0,0,0,0,0,0,0,0,0,0,0,0,0,0,0,0,0,0,0,0,0,0,0,0,0,0,0,0,0,0,0,0,0,0,0,0,0,0,0,0,0,0,0,0,0,0,0,0,0,0,0,0,0,0,0,0,0,0,0,0,0,0,0,0,0,0,0,0,0,0,0,0,0,0,0,0,0,0,0,0,0,0,0,0,0,0,0,0,0,0,0,0,0,0,0,0,0,0,0,0,0,0,0,0,0,0,0,0,0,0,0,0,0,0,0,0,0,0,0,0,0,0,0,0,0,0,0,0,0,0,0,0,0,0,0,0,0,0,0,0,0,0,0,0,0,0,0,0,0,0,0,0,0,0,0,0,0,0,0,0,0,0,0,0,0,0,0,0,0,0,0,0,0,0,0,0,0,0,0,0,0,0,0,0,0,0,0,0,0,0,0,0,0,0,0,0,0,0,0,0,0,0,0,0,0,0,0,0,0,0,0,0,0,0,0,0,0,0,0,0,0,0,0,0,0,0,0,0,0,0,0,0,0,0,0,0,0,0,0,0,0,0,0,0,0,0,0,0,0,0,0,0,0,0,0,0,0,0,0,0,0,0,0,0,0,0,0,0,0,0,0,0,0,0,0,0,0,0,0,0,0,0,0,0,0,0,0,0,0,0,0,0,0,0,0,0,0,0,0,0,0,0,0,0,0,0,0,0,0,0,0,0,0,0,0,0,0,0,0,0,0,0,0,0,0,0,0,0,0,0,0,0,0,0,0,0,0,0,0,0,0,0,0,0,0,0,0],"opacity":1,"visible":true,"x":0,"y":0},{"id":2,"name":"ground","type":"tilelayer","width":47,"height":14,"data":[0,0,0,0,0,0,0,0,0,0,0,0,0,0,0,0,0,0,0,0,0,0,0,0,0,0,0,0,0,0,0,0,0,0,0,0,0,0,0,0,0,0,0,0,0,0,0,0,0,0,0,0,0,0,0,0,0,0,0,0,0,0,0,0,0,0,0,0,0,0,0,0,0,0,0,0,0,0,0,0,0,0,0,0,0,0,0,0,0,0,0,0,0,0,0,0,0,0,0,0,0,0,0,0,0,0,0,0,0,0,0,0,0,0,0,0,0,0,0,0,0,0,0,0,0,0,0,0,0,0,0,0,0,0,0,0,0,0,0,0,0,0,0,0,0,0,0,0,0,0,0,0,0,0,0,0,0,0,0,0,0,0,0,0,0,0,0,0,0,0,0,0,0,0,0,0,0,0,0,0,0,0,0,0,0,0,0,0,0,0,0,0,0,0,0,0,0,0,0,0,0,0,0,0,0,0,0,0,0,0,0,0,0,0,0,0,0,0,0,0,0,0,0,0,0,0,0,0,0,0,0,0,0,0,0,0,0,0,0,0,0,0,0,0,0,0,0,0,0,0,0,0,0,0,0,0,0,0,0,0,0,0,0,0,0,0,0,0,0,0,0,0,0,0,0,0,0,0,0,0,0,0,0,0,0,0,0,0,0,0,0,0,0,0,0,0,0,0,0,0,0,0,0,0,0,0,0,0,0,0,0,0,0,0,0,0,0,0,0,0,0,0,0,0,0,0,0,0,0,0,0,0,0,0,0,0,0,0,0,0,0,0,0,0,0,0,0,0,0,0,1,2,2,3,0,0,0,0,0,0,0,0,0,0,0,0,0,0,0,0,0,0,0,0,0,0,0,0,0,0,0,0,0,0,0,0,0,0,0,0,0,0,0,0,0,1,2,6,6,6,6,2,3,0,0,0,0,0,0,0,0,0,0,0,0,0,0,0,0,0,0,0,0,0,0,0,0,0,0,0,0,0,0,0,0,0,0,0,0,0,0,0,5,6,6,6,6,6,6,7,0,0,0,0,0,0,0,0,0,0,0,0,0,0,0,0,0,0,0,0,1,2,2,2,2,2,2,2,2,2,2,2,2,2,2,2,2,2,2,6,6,6,6,6,6,6,6,2,2,2,2,2,2,2,2,2,2,2,2,2,2,2,2,2,2,3,0,5,6,6,6,6,6,6,6,6,6,6,6,6,6,6,6,6,6,6,6,6,6,6,6,6,6,6,6,6,6,6,6,6,6,6,6,6,6,6,6,6,6,6,6,6,7,0,5,6,6,6,6,6,6,6,6,6,6,6,6,6,6,6,6,6,6,6,6,6,6,6,6,6,6,6,6,6,6,6,6,6,6,6,6,6,6,6,6,6,6,6,6,7,0,9,10,10,10,10,10,10,10,10,10,10,10,10,10,10,10,10,10,10,10,10,10,10,10,10,10,10,10,10,10,10,10,10,10,10,10,10,10,10,10,10,10,10,10,10,11,0],"opacity":1,"visible":true,"x":0,"y":0},{"id":3,"name":"objects","type":"objectgroup","objects":[{"id":1,"name":"deco","type":"deco","class":"deco","x":208,"y":160,"width":0,"height":0,"point":true,"rotation":0,"visible":true,"properties":[{"name":"frame","type":"string","value":"deco_banner_red_0"}]},{"id":2,"name":"deco","type":"deco","class":"deco","x":1296,"y":160,"width":0,"height":0,"point":true,"rotation":0,"visible":true,"properties":[{"name":"frame","type":"string","value":"deco_banner_red_0"}]},{"id":3,"name":"torch","type":"torch","class":"torch","x":304,"y":176,"width":0,"height":0,"point":true,"rotation":0,"visible":true},{"id":4,"name":"torch","type":"torch","class":"torch","x":496,"y":176,"width":0,"height":0,"point":true,"rotation":0,"visible":true},{"id":5,"name":"boss","type":"boss","class":"boss","x":752,"y":192,"width":0,"height":0,"point":true,"rotation":0,"visible":true},{"id":6,"name":"torch","type":"torch","class":"torch","x":1008,"y":176,"width":0,"height":0,"point":true,"rotation":0,"visible":true},{"id":7,"name":"torch","type":"torch","class":"torch","x":1200,"y":176,"width":0,"height":0,"point":true,"rotation":0,"visible":true},{"id":8,"name":"deco","type":"deco","class":"deco","x":752,"y":224,"width":0,"height":0,"point":true,"rotation":0,"visible":true,"properties":[{"name":"frame","type":"string","value":"deco_throne_0"}]},{"id":9,"name":"card","type":"card","class":"card","x":336,"y":240,"width":0,"height":0,"point":true,"rotation":0,"visible":true},{"id":10,"name":"card","type":"card","class":"card","x":400,"y":240,"width":0,"height":0,"point":true,"rotation":0,"visible":true},{"id":11,"name":"card","type":"card","class":"card","x":464,"y":240,"width":0,"height":0,"point":true,"rotation":0,"visible":true},{"id":12,"name":"card","type":"card","class":"card","x":1104,"y":240,"width":0,"height":0,"point":true,"rotation":0,"visible":true},{"id":13,"name":"card","type":"card","class":"card","x":1168,"y":240,"width":0,"height":0,"point":true,"rotation":0,"visible":true},{"id":14,"name":"card","type":"card","class":"card","x":1232,"y":240,"width":0,"height":0,"point":true,"rotation":0,"visible":true},{"id":15,"name":"machine","type":"machine","class":"machine","x":48,"y":320,"width":0,"height":0,"point":true,"rotation":0,"visible":true},{"id":16,"name":"spawn","type":"spawn","class":"spawn","x":144,"y":304,"width":0,"height":0,"point":true,"rotation":0,"visible":true},{"id":17,"name":"deco","type":"deco","class":"deco","x":176,"y":320,"width":0,"height":0,"point":true,"rotation":0,"visible":true,"properties":[{"name":"frame","type":"string","value":"deco_pillar_0"}]},{"id":18,"name":"deco","type":"deco","class":"deco","x":432,"y":320,"width":0,"height":0,"point":true,"rotation":0,"visible":true,"properties":[{"name":"frame","type":"string","value":"deco_pillar_0"}]},{"id":19,"name":"deco","type":"deco","class":"deco","x":880,"y":320,"width":0,"height":0,"point":true,"rotation":0,"visible":true,"properties":[{"name":"frame","type":"string","value":"deco_chalk_inf_0"}]},{"id":20,"name":"deco","type":"deco","class":"deco","x":1072,"y":320,"width":0,"height":0,"point":true,"rotation":0,"visible":true,"properties":[{"name":"frame","type":"string","value":"deco_pillar_0"}]},{"id":21,"name":"deco","type":"deco","class":"deco","x":1328,"y":320,"width":0,"height":0,"point":true,"rotation":0,"visible":true,"properties":[{"name":"frame","type":"string","value":"deco_pillar_0"}]},{"id":22,"name":"flag","type":"flag","class":"flag","x":1360,"y":320,"width":0,"height":0,"point":true,"rotation":0,"visible":true},{"id":23,"name":"deco","type":"deco","class":"deco","x":1392,"y":320,"width":0,"height":0,"point":true,"rotation":0,"visible":true,"properties":[{"name":"frame","type":"string","value":"deco_window_0"}]}],"opacity":1,"visible":true,"x":0,"y":0,"draworder":"topdown"}]}