{"type":"map","version":"1.10","tiledversion":"1.11.0","orientation":"orthogonal","renderorder":"right-down","width":205,"height":14,"tilewidth":32,"tileheight":32,"infinite":false,"nextlayerid":4,"nextobjectid":75,"tilesets":[{"firstgid":1,"name":"tiles","image":"../tiles.png","imagewidth":256,"imageheight":96,"tilewidth":32,"tileheight":32,"tilecount":24,"columns":8,"margin":0,"spacing":0}],"layers":[{"id":1,"name":"back","type":"tilelayer","width":205,"height":14,"data":[0,0,0,0,0,0,0,0,0,0,0,0,0,0,0,0,0,0,0,0,0,0,0,0,0,0,0,0,0,0,0,0,0,0,0,0,0,0,0,0,0,0,0,0,0,0,0,0,0,0,0,0,0,0,0,0,0,0,0,0,0,0,0,0,0,0,0,0,0,0,0,0,0,0,0,0,0,0,0,0,0,0,0,0,0,0,0,0,0,0,0,0,0,0,0,0,0,0,0,0,0,0,0,0,0,0,0,0,0,0,0,0,0,0,0,0,0,0,0,0,0,0,0,0,0,0,0,0,0,0,0,0,0,0,0,0,0,0,0,0,0,0,0,0,0,0,0,0,0,0,0,0,0,0,0,0,0,0,0,0,0,0,0,0,0,0,0,0,0,0,0,0,0,0,0,0,0,0,0,0,0,0,0,0,0,0,0,0,0,0,0,0,0,0,0,0,0,0,0,0,0,0,0,0,0,0,0,0,0,0,0,0,0,0,0,0,0,0,0,0,0,0,0,0,0,0,0,0,0,0,0,0,0,0,0,0,0,0,0,0,0,0,0,0,0,0,0,0,0,0,0,0,0,0,0,0,0,0,0,0,0,0,0,0,0,0,0,0,0,0,0,0,0,0,0,0,0,0,0,0,0,0,0,0,0,0,0,0,0,0,0,0,0,0,0,0,0,0,0,0,0,0,0,0,0,0,0,0,0,0,0,0,0,0,0,0,0,0,0,0,0,0,0,0,0,0,0,0,0,0,0,0,0,0,0,0,0,0,0,0,0,0,0,0,0,0,0,0,0,0,0,0,0,0,0,0,0,0,0,0,0,0,0,0,0,0,0,0,0,0,0,0,0,0,0,0,0,0,0,0,0,0,0,0,0,0,0,0,0,0,0,0,0,0,0,0,0,0,0,0,0,0,0,0,0,0,0,0,0,0,0,0,0,0,0,0,0,0,0,0,0,0,0,0,0,0,0,0,0,0,0,0,0,0,0,0,0,0,0,0,0,0,0,0,0,0,0,0,0,0,0,0,0,0,0,0,0,0,0,0,0,0,0,0,0,0,0,0,0,0,0,0,0,0,0,0,0,0,0,0,0,0,0,0,0,0,0,0,0,0,0,0,0,0,0,0,0,0,0,0,0,0,0,0,0,0,0,0,0,0,0,0,0,0,0,0,0,0,0,0,0,0,0,0,0,0,0,0,0,0,0,0,0,0,0,0,0,0,0,0,0,0,0,0,0,0,0,0,0,0,0,0,0,0,0,0,0,0,0,0,0,0,0,0,0,0,0,0,0,0,0,0,0,0,0,0,0,0,0,0,0,0,0,0,0,0,0,0,0,0,0,0,0,0,0,0,0,0,0,0,0,0,0,0,0,0,0,0,0,0,0,0,0,0,0,0,0,0,0,0,0,0,0,0,0,0,0,0,0,0,0,0,0,0,0,0,0,0,0,0,0,0,0,0,0,0,0,0,0,0,0,0,0,0,0,0,0,0,0,0,0,0,0,0,0,0,0,0,0,0,0,0,0,0,0,0,0,0,0,0,0,0,0,0,0,0,0,0,0,0,0,0,0,0,0,0,0,0,0,0,0,0,0,0,0,0,0,0,0,0,0,0,0,0,0,0,0,0,0,0,0,0,0,0,0,0,0,0,0,0,0,0,0,0,0,0,0,0,0,0,0,0,0,0,0,0,0,0,0,0,0,0,0,0,0,0,0,0,0,0,0,0,0,0,0,0,0,0,0,0,0,0,0,0,0,0,0,0,0,0,0,0,0,0,0,0,0,0,0,0,0,0,0,0,0,0,0,0,0,0,0,0,0,0,0,0,0,0,0,0,0,0,0,0,0,0,0,0,0,0,0,0,0,0,0,0,0,0,0,0,0,0,0,0,0,0,0,0,0,0,0,0,0,0,0,0,0,0,0,0,0,0,0,0,0,0,0,0,0,0,0,0,0,0,0,0,0,0,0,0,0,0,0,0,0,0,0,0,0,0,0,0,0,0,0,0,0,0,0,0,0,0,0,0,0,0,0,0,0,0,0,0,0,0,0,0,0,0,0,0,0,0,0,0,0,0,0,0,0,0,0,0,0,0,0,0,0,0,0,0,0,0,0,0,0,0,0,0,0,0,0,0,0,0,0,0,0,0,0,0,0,0,0,0,0,0,0,0,0,0,0,0,0,0,0,0,0,0,0,0,0,0,0,0,0,0,0,0,0,0,0,0,0,0,0,0,0,0,0,0,0,0,0,0,0,0,0,0,0,0,0,0,0,0,0,0,0,0,0,0,0,0,0,0,0,0,0,0,0,0,0,0,0,0,0,0,0,0,0,0,0,0,0,0,0,0,0,0,0,0,0,0,0,0,0,0,0,0,0,0,0,0,0,0,0,0,0,0,0,0,0,0,0,0,0,0,0,0,0,0,0,0,0,0,0,0,0,0,0,0,0,0,0,0,0,0,0,0,0,0,0,0,0,0,0,0,0,0,0,0,0,0,0,0,0,0,0,0,0,0,0,0,0,0,0,0,0,0,0,0,0,0,0,0,0,0,0,0,0,0,0,0,0,0,0,0,0,0,0,0,0,0,0,0,0,0,0,0,0,0,0,0,0,0,0,0,0,0,0,0,0,0,0,0,0,0,0,0,0,0,0,0,0,0,0,0,0,0,0,0,0,0,0,0,0,0,0,0,0,0,0,0,0,0,0,0,0,0,0,0,0,0,0,0,0,0,0,0,0,0,0,0,0,0,0,0,0,0,0,0,0,0,0,0,0,0,0,0,0,0,0,0,0,0,0,0,0,0,0,0,0,0,0,0,0,0,0,0,0,0,0,0,0,0,0,0,0,0,0,0,0,0,0,0,0,0,0,0,0,0,0,0,0,0,0,0,0,0,0,0,0,0,0,0,0,0,0,0,0,0,0,0,0,0,0,0,0,0,0,0,0,0,0,0,0,0,0,0,0,0,0,0,0,0,0,0,0,0,0,0,0,0,0,0,0,0,0,0,0,0,0,0,0,0,0,0,0,0,0,0,0,0,0,0,0,0,0,0,0,0,0,0,0,0,0,0,0,0,0,0,0,0,0,0,0,0,0,0,0,0,0,0,0,0,0,0,0,0,0,0,0,0,0,0,0,0,0,0,0,0,0,0,0,0,0,0,0,0,0,0,0,0,0,0,0,0,0,0,0,0,0,0,0,0,0,0,0,0,0,0,0,0,0,0,0,0,0,0,0,0,0,0,0,0,0,0,0,0,0,0,0,0,0,0,0,0,0,0,0,0,0,0,0,0,0,0,0,0,0,0,0,0,0,0,0,0,0,0,0,0,0,0,0,0,0,0,0,0,0,0,0,0,0,0,0,0,0,0,0,0,0,0,0,0,0,0,0,0,0,0,0,0,0,0,0,0,0,0,0,0,0,0,0,0,0,0,0,0,0,0,0,0,0,0,0,0,0,0,0,0,0,0,0,0,0,0,0,0,0,0,0,0,0,0,0,0,0,0,0,0,0,0,0,0,0,0,0,0,0,0,0,0,0,0,0,0,0,0,0,0,0,0,0,0,0,0,0,0,0,0,0,0,0,0,0,0,0,0,0,0,0,0,0,0,0,0,0,0,0,0,0,0,0,0,0,0,0,0,0,0,0,0,0,0,0,0,0,0,0,0,0,0,0,0,0,0,0,0,0,0,0,0,0,0,0,0,0,0,0,0,0,0,0,0,0,0,0,0,0,0,0,0,0,0,0,0,0,0,0,0,0,0,0,0,0,0,0,0,0,0,0,0,0,0,0,0,0,0,0,0,0,0,0,0,0,0,0,0,0,0,0,0,0,0,0,0,0,0,0,0,0,0,0,0,0,0,0,0,0,0,0,0,0,0,0,0,0,0,0,0,0,0,0,0,0,0,0,0,0,0,0,0,0,0,0,0,0,0,0,0,0,0,0,0,0,0,0,0,0,0,0,0,0,0,0,0,0,0,0,0,0,0,0,0,0,0,0,0,0,0,0,0,0,0,0,0,0,0,0,0,0,0,0,0,0,0,0,0,0,0,0,0,0,0,0,0,0,0,0,0,0,0,0,0,0,0,0,0,0,0,0,0,0,0,0,0,0,0,0,0,0,0,0,0,0,0,0,0,0,0,0,0,0,0,0,0,0,0,0,0,0,0,0,0,0,0,0,0,0,0,0,0,0,0,0,0,0,0,0,0,0,0,0,0,0,0,0,0,0,0,0,0,0,0,0,0,0,0,0,0,0,0,0,0,0,0,0,0,0,0,0,0,0,0,0,0,0,0,0,0,0,0,0,0,0,0,0,0,0,0,0,0,0,0,0,0,0,0,0,0,0,0,0,0,0,0,0,0,0,0,0,0,0,0,0,0,0,0,0,0,0,0,0,0,0,0,0,0,0,0,0,0,0,0,0,0,0,0,0,0,0,0,0,0,0,0,0,0,0,0,0,0,0,0,0,0,0,0,0,0,0,0,0,0,0,0,0,0,0,0,0,0,0,0,0,0,0,0,0,0,0,0,0,0,0,0,0,0,0,0,0,0,0,0,0,0,0,0,0,0,0,0,0,0,0,0,0,0,0,0,0,0,0,0,0,0,0,0,0,0,0,0,0,0,0,0,0,0,0,0,0,0,0,0,0,0,0,0,0,0,0,0,0,0,0,0,0,0,0,0,0,0,0,0,0,0,0,0,0,0,0,0,0,0,0,0,0,0,0,0,0,0,0,0,0,0,0,0,0,0,0,0,0,0,0,0,0,0,0,0,0,0,0,0,0,0,0,0,0,0,0,0,0,0,0,0,0,0,0,0,0,0,0,0,0,0,0,0,0,0,0,0,0,0,0,0,0,0,0,0,0,0,0,0,0,0,0,0,0,0,0,0,0,0,0,0,0,0,0,0,0,0,0,0,0,0,0,0,0,0,0,0,0,0,0,0,0,0,0,0,0,0,0,0,0,0,0,0,0,0,0,0,0,0,0,0,0,0,0,0,0,0,0,0,0,0,0,0,0,0,0,0,0,0,0,0,0,0,0,0,0,0,0,0,0,0,0,0,0,0,0,0,0,0,0,0,0,0,0,0,0,0,0,0,0,0,0,0,0,0,0,0,0,0,0,0,0,0,0,0,0,0,0,0,0,0,0,0,0,0,0,0,0,0,0,0,0,0,0,0,0,0,0,0,0,0,0,0,0,0,0,0,0,0,0,0,0,0,0,0,0,0,0,0,0,0,0,0,0,0,0,0,0,0,0,0,0,0,0,0,0,0,0,0,0,0,0,0,0,0,0,0,0,0,0,0,0,0,0,0,0,0,0,0,0,0,0,0,0,0,0,0,0,0,0,0,0,0,0,0,0,0,0,0,0,0,0,0,0,0,0,0,0,0,0,0,0,0,0,0,0,0,0,0,0,0,0,0,0,0,0,0,0,0,0,0,0,0,0,0,0,0,0,0,0,0,0,0,0,0,0,0,0,0,0,0,0,0,0,0,0,0,0,0,0,0,0,0,0,0,0,0,0,0,0,0,0,0,0,0,0,0,0,0,0,0,0,0,0,0,0,0,0,0,0,0,0,0,0,0,0,0,0,0,0,0,0,0,0,0,0,0,0,0,0,0,0,0,0,0,0,0,0,0,0,0,0,0,0,0,0,0,0,0,0,0,0,0,0,0,0,0,0,0,0,0,0,0,0,0,0,0,0,0,0,0,0,0,0,0,0,0,0,0,0,0,0,0,0,0,0,0,0,0,0,0,0,0,0,0,0,0,0,0,0,0,0,0,0,0,0,0,0,0,0,0,0,0,0,0,0,0,0,0,0,0,0,0,0,0,0,0,0,0,0,0,0,0,0,0,0,0,0,0,0,0,0,0,0,0,0,0,0,0,0,0,0,0,0,0,0,0,0,0,0,0,0,0,0,0,0,0,0,0,0,0,0,0,0,0,0,0,0,0,0,0,0,0,0,0,0,0,0,0,0,0,0,0,0,0,0,0,0,0,0,0,0,0,0,0,0,0,0,0,0,0,0,0,0,0,0,0,0,0,0,0,0,0,0,0,0,0,0,0,0,0,0,0,0,0,0,0,0,0,0,0,0,0,0,0,0,0,0,0,0,0,0,0,0,0,0,0,0,0,0,0,0,0,0,0,0,0,0,0,0,0,0,0,0,0,0,0,0,0,0,0,0,0,0,0,0,0,0,0,0,0,0,0,0,0,0,0,0,0,0,0,0,0,0,0,0,0,0,0,0,0,0,0,0,0,0,0,0,0,0,0,0,0,0,0,0,0,0,0,0,0,0,0,0,0,0,0,0,0,0,0,0,0,0,0,0,0,0,0,0,0,0,0,0,0,0,0,0,0,0,0,0,0,0,0,0,0,0,0,0,0,0,0,0,0,0,0,0,0,0,0,0,0,0,0,0,0,0,0,0,0,0,0,0,0,0,0,0,0,0,0,0,0,0,0,0,0,0,0,0,0,0,0,0,0],"opacity":1,"visible":true,"x":0,"y":0},{"id":2,"name":"ground","type":"tilelayer","width":205,"height":14,"data":[0,0,0,0,0,0,0,0,0,0,0,0,0,0,0,0,0,0,0,0,0,0,0,0,0,0,0,0,0,0,0,0,0,0,0,0,0,0,0,0,0,0,0,0,0,0,0,0,0,0,0,0,0,0,0,0,0,0,0,0,0,0,0,0,0,0,0,0,0,0,0,0,0,0,0,0,0,0,0,0,0,0,0,0,0,0,0,0,0,0,0,0,0,0,0,0,0,0,0,0,0,0,0,0,0,0,0,0,0,0,0,0,0,0,0,0,0,0,0,0,0,0,0,0,0,0,0,0,0,0,0,0,0,0,0,0,0,0,0,0,0,0,0,0,0,0,0,0,0,0,0,0,0,0,0,0,0,0,0,0,0,0,0,0,0,0,0,0,0,0,0,0,0,0,0,0,0,0,0,0,0,0,0,0,0,1,3,0,0,0,0,0,0,0,0,0,0,0,0,0,0,0,0,0,0,0,0,0,0,0,0,0,0,0,0,0,0,0,0,0,0,0,0,0,0,0,0,0,0,0,0,0,0,0,0,0,0,0,0,0,0,0,0,0,0,0,0,0,0,0,0,0,0,0,0,0,0,0,0,0,0,0,0,0,0,0,0,0,0,0,0,0,0,0,0,0,0,0,0,0,0,0,0,0,0,0,0,0,0,0,0,0,0,0,0,0,0,0,0,0,0,0,0,0,0,0,0,0,0,0,0,0,0,0,0,0,0,0,0,0,0,0,0,0,0,0,0,0,0,0,0,0,0,0,0,0,0,0,0,0,0,0,0,0,0,0,0,0,0,0,0,0,0,0,0,0,0,0,0,0,0,0,0,0,0,0,0,0,0,0,0,0,0,0,0,0,0,0,0,0,0,0,0,0,0,0,0,0,0,0,5,7,0,0,0,0,0,0,0,0,0,0,0,0,0,0,0,0,0,0,0,0,0,0,0,0,0,0,0,0,0,0,0,0,0,0,0,0,0,0,0,0,0,0,0,0,0,0,0,0,0,0,0,0,0,0,0,0,0,0,0,0,0,0,0,0,0,0,0,0,0,0,0,0,0,0,0,0,0,0,0,0,0,0,0,0,0,0,0,0,0,0,0,0,0,0,0,0,0,0,0,0,0,0,0,0,0,0,0,0,0,0,0,0,0,0,0,0,0,0,0,0,0,0,0,0,0,0,0,0,0,0,0,0,0,0,0,0,0,0,0,0,0,0,0,0,0,0,0,0,0,0,0,0,0,0,0,0,0,0,0,0,0,0,0,0,0,0,0,0,0,0,0,0,0,0,0,0,0,0,0,0,0,0,0,0,0,0,0,0,0,0,0,0,0,0,0,0,0,0,0,0,0,0,0,5,7,0,0,0,0,0,0,0,0,0,0,0,0,0,0,0,0,0,0,0,0,0,0,0,0,0,0,0,0,0,0,0,0,0,0,0,0,0,0,0,0,0,0,0,0,0,0,0,0,0,0,0,0,0,0,0,0,0,0,0,0,0,0,0,0,0,0,0,0,0,0,0,0,0,0,0,0,0,0,0,0,0,0,0,0,0,0,0,0,0,0,0,0,0,0,0,0,0,0,0,0,0,0,0,0,0,0,0,0,0,0,0,0,0,0,0,0,0,0,0,0,0,0,0,0,0,0,0,0,0,0,0,0,0,0,0,0,0,0,0,0,0,0,0,0,0,0,0,0,0,0,0,0,0,0,0,0,0,0,0,0,0,0,0,0,0,0,0,0,0,0,0,0,0,0,0,0,0,0,0,0,0,0,0,0,0,0,0,0,0,0,0,0,0,0,0,0,0,0,0,0,0,0,0,5,6,14,14,14,14,14,14,14,14,14,14,14,14,14,14,14,14,14,3,0,0,0,0,0,0,0,0,0,0,0,0,0,0,0,0,0,0,0,0,0,0,0,0,0,0,0,0,0,0,0,0,0,0,0,0,0,0,0,0,0,0,0,0,0,0,0,0,0,0,0,0,0,0,0,0,0,0,0,0,0,0,0,0,0,0,0,0,0,0,0,0,0,0,0,0,0,0,0,0,0,0,0,0,0,0,0,0,0,0,0,0,0,0,0,0,0,0,0,0,0,0,0,0,0,0,0,0,0,0,0,0,0,0,0,0,0,0,0,0,0,0,0,0,0,0,0,0,0,0,0,0,0,0,0,0,0,0,0,0,0,0,0,0,0,0,0,0,0,0,0,0,0,0,0,0,0,0,0,0,0,0,0,0,0,0,0,0,0,0,0,0,0,0,0,0,0,0,0,0,0,0,0,0,0,5,7,0,0,0,0,0,0,0,0,0,0,0,0,0,0,0,0,0,8,0,0,0,0,0,0,0,0,0,0,0,0,0,0,0,0,0,0,0,0,0,0,0,0,0,0,0,0,0,0,0,0,0,0,0,0,0,0,0,0,0,0,0,0,0,0,0,0,0,0,0,0,0,0,0,0,0,0,0,0,0,0,0,0,0,0,0,0,0,0,0,0,0,0,0,0,0,0,0,0,0,0,0,0,0,0,0,0,0,0,0,0,0,0,0,0,0,0,0,0,0,0,0,0,0,0,0,0,0,0,0,0,0,0,0,0,0,0,0,0,0,0,0,0,0,0,0,0,0,0,0,0,0,0,0,0,0,0,0,0,0,0,0,0,0,0,0,0,0,0,0,0,0,0,0,0,0,0,0,0,0,0,0,0,0,0,0,0,0,0,0,0,0,0,0,0,0,0,0,0,0,0,0,0,0,5,7,0,0,0,0,0,0,0,0,0,0,0,0,0,0,0,0,0,8,0,0,0,0,0,0,0,0,0,0,0,0,0,0,0,0,0,0,0,0,0,0,0,0,0,0,0,0,0,0,0,0,0,0,0,0,0,0,0,0,0,0,0,0,0,0,0,0,0,0,0,0,0,0,0,0,0,0,0,0,0,0,0,0,0,0,0,0,0,0,0,0,0,0,0,0,0,0,0,0,0,0,0,0,0,0,0,0,0,0,0,0,0,0,0,0,0,0,0,0,0,0,0,0,0,0,0,0,0,0,0,0,0,0,0,0,0,0,0,0,0,13,14,15,0,0,0,0,0,0,0,0,0,0,0,0,0,0,0,0,0,0,0,0,0,0,0,0,0,0,0,0,0,0,0,0,0,0,0,0,0,0,0,0,0,0,0,0,0,0,0,0,0,0,0,0,0,0,0,0,0,0,0,0,0,5,7,0,0,0,0,0,0,0,0,0,0,0,0,0,0,0,0,0,8,0,0,0,0,0,0,0,0,0,0,0,0,0,0,0,0,0,0,0,0,0,0,0,0,0,0,0,0,0,0,0,0,0,0,0,0,0,0,0,0,0,0,0,0,0,0,0,0,0,0,0,0,0,0,0,0,0,0,0,0,0,0,0,0,0,0,0,0,0,0,0,0,0,0,0,0,0,0,0,0,0,0,0,0,0,0,0,0,0,0,0,0,0,0,0,0,0,0,0,0,0,0,0,0,0,0,0,0,0,0,0,0,0,0,0,0,0,0,0,0,0,0,0,0,0,0,0,0,0,0,0,0,0,0,0,0,0,0,0,0,13,14,14,15,0,0,0,0,0,0,0,0,0,0,0,0,0,0,0,0,0,0,0,0,0,0,0,0,0,0,0,0,0,0,0,0,0,0,0,0,0,0,0,0,0,5,7,0,0,0,0,0,0,0,13,14,15,0,0,0,0,0,0,0,8,0,0,0,0,0,0,0,0,0,0,0,0,0,0,0,0,0,0,0,0,0,0,0,0,0,0,0,0,0,0,0,0,0,0,0,0,0,0,0,0,0,0,0,0,0,0,0,0,0,0,0,0,0,0,0,0,0,0,0,0,0,0,0,0,0,0,0,0,0,0,0,0,0,0,0,0,0,0,0,0,0,0,0,0,0,0,0,0,0,0,0,0,0,0,0,0,0,0,0,0,0,0,0,0,0,0,0,0,0,0,0,0,0,0,0,0,0,0,0,0,4,0,0,0,0,0,0,0,0,0,0,0,0,0,0,0,0,0,0,4,0,0,0,0,0,0,0,0,0,0,0,0,0,0,0,0,4,0,0,0,0,0,0,0,0,0,0,0,0,0,0,0,0,0,0,0,0,0,0,0,0,0,0,0,0,5,7,0,0,0,0,0,0,0,0,0,0,0,0,0,0,0,0,0,8,0,0,0,0,0,0,0,0,0,0,0,0,0,0,0,0,0,0,0,0,0,0,0,0,0,0,0,0,0,0,0,0,0,0,0,0,0,0,0,0,0,0,0,0,0,0,0,0,0,0,0,0,0,0,0,0,0,0,0,0,0,0,0,0,0,0,0,0,0,0,0,0,0,0,0,0,0,0,0,0,0,0,0,0,0,0,0,0,0,0,0,0,0,0,0,0,0,0,0,0,0,0,0,0,0,0,0,0,0,0,0,0,0,0,0,0,0,0,0,0,8,0,0,0,0,0,0,0,0,0,0,0,0,0,0,0,0,0,0,8,0,0,0,0,0,0,0,0,0,0,0,0,0,0,0,0,8,0,0,0,0,0,0,0,0,0,0,0,0,0,0,0,0,0,0,0,0,0,0,0,0,0,0,0,0,5,7,0,0,0,0,0,0,0,0,0,0,0,0,0,0,0,0,0,8,1,2,2,2,2,2,2,2,2,2,2,2,2,2,2,2,2,2,2,2,2,2,2,2,2,2,2,2,2,2,2,2,3,0,0,0,0,1,2,2,2,2,2,2,2,2,2,2,2,2,2,2,2,2,2,2,2,2,2,2,3,0,0,0,0,0,0,0,0,1,2,2,2,2,2,2,2,2,3,0,0,0,0,0,0,0,0,0,0,0,1,2,2,2,2,2,2,2,2,2,2,2,2,3,0,0,0,0,0,0,1,2,2,2,2,2,2,2,2,2,6,2,2,2,2,2,2,2,3,0,0,0,1,2,2,2,2,2,2,6,2,2,2,2,2,2,3,0,0,0,1,2,2,2,2,2,6,2,2,2,2,2,2,2,2,2,2,2,2,2,2,2,2,2,2,2,2,2,2,2,2,2,2,2,2,6,6,2,2,2,2,2,2,2,2,2,2,2,2,2,2,2,2,2,7,5,6,6,6,6,6,6,6,6,6,6,6,6,6,6,6,6,6,6,6,6,6,6,6,6,6,6,6,6,6,6,6,7,0,0,0,0,5,6,6,6,6,6,6,6,6,6,6,6,6,6,6,6,6,6,6,6,6,6,6,7,0,0,0,0,0,0,0,0,5,6,6,6,6,6,6,6,6,7,0,0,0,0,0,0,0,0,0,0,0,5,6,6,6,6,6,6,6,6,6,6,6,6,7,0,0,0,0,0,0,5,6,6,6,6,6,6,6,6,6,6,6,6,6,6,6,6,6,7,0,0,0,5,6,6,6,6,6,6,6,6,6,6,6,6,6,7,0,0,0,5,6,6,6,6,6,6,6,6,6,6,6,6,6,6,6,6,6,6,6,6,6,6,6,6,6,6,6,6,6,6,6,6,6,6,6,6,6,6,6,6,6,6,6,6,6,6,6,6,6,6,6,6,6,7,5,6,6,6,6,6,6,6,6,6,6,6,6,6,6,6,6,6,6,6,6,6,6,6,6,6,6,6,6,6,6,6,7,0,0,0,0,5,6,6,6,6,6,6,6,6,6,6,6,6,6,6,6,6,6,6,6,6,6,6,7,0,0,0,0,0,0,0,0,5,6,6,6,6,6,6,6,6,7,0,0,0,0,0,0,0,0,0,0,0,5,6,6,6,6,6,6,6,6,6,6,6,6,7,0,0,0,0,0,0,5,6,6,6,6,6,6,6,6,6,6,6,6,6,6,6,6,6,7,0,0,0,5,6,6,6,6,6,6,6,6,6,6,6,6,6,7,0,0,0,5,6,6,6,6,6,6,6,6,6,6,6,6,6,6,6,6,6,6,6,6,6,6,6,6,6,6,6,6,6,6,6,6,6,6,6,6,6,6,6,6,6,6,6,6,6,6,6,6,6,6,6,6,6,7,9,10,10,10,10,10,10,10,10,10,10,10,10,10,10,10,10,10,10,10,10,10,10,10,10,10,10,10,10,10,10,10,11,0,0,0,0,9,10,10,10,10,10,10,10,10,10,10,10,10,10,10,10,10,10,10,10,10,10,10,11,0,0,0,0,0,0,0,0,9,10,10,10,10,10,10,10,10,11,0,0,0,0,0,0,0,0,0,0,0,9,10,10,10,10,10,10,10,10,10,10,10,10,11,0,0,0,0,0,0,9,10,10,10,10,10,10,10,10,10,10,10,10,10,10,10,10,10,11,0,0,0,9,10,10,10,10,10,10,10,10,10,10,10,10,10,11,0,0,0,9,10,10,10,10,10,10,10,10,10,10,10,10,10,10,10,10,10,10,10,10,10,10,10,10,10,10,10,10,10,10,10,10,10,10,10,10,10,10,10,10,10,10,10,10,10,10,10,10,10,10,10,10,10,11],"opacity":1,"visible":true,"x":0,"y":0},{"id":3,"name":"objects","type":"objectgroup","objects":[{"id":1,"name":"royal","type":"royal","class":"royal","x":2128,"y":144,"width":0,"height":0,"point":true,"rotation":0,"visible":true},{"id":2,"name":"royal","type":"royal","class":"royal","x":3920,"y":144,"width":0,"height":0,"point":true,"rotation":0,"visible":true},{"id":3,"name":"card","type":"card","class":"card","x":6256,"y":144,"width":0,"height":0,"point":true,"rotation":0,"visible":true},{"id":4,"name":"card","type":"card","class":"card","x":464,"y":176,"width":0,"height":0,"point":true,"rotation":0,"visible":true},{"id":5,"name":"card","type":"card","class":"card","x":6224,"y":176,"width":0,"height":0,"point":true,"rotation":0,"visible":true},{"id":6,"name":"card","type":"card","class":"card","x":6288,"y":176,"width":0,"height":0,"point":true,"rotation":0,"visible":true},{"id":7,"name":"card","type":"card","class":"card","x":400,"y":208,"width":0,"height":0,"point":true,"rotation":0,"visible":true},{"id":8,"name":"card","type":"card","class":"card","x":528,"y":208,"width":0,"height":0,"point":true,"rotation":0,"visible":true},{"id":9,"name":"block","type":"block","class":"block","x":1408,"y":192,"width":32,"height":32,"point":false,"rotation":0,"visible":true,"properties":[{"name":"contents","type":"string","value":"cambio"}]},{"id":10,"name":"cardplat","type":"cardplat","class":"cardplat","x":2112,"y":208,"width":0,"height":0,"point":true,"rotation":0,"visible":true,"properties":[{"name":"phase","type":"int","value":800}]},{"id":11,"name":"royal","type":"royal","class":"royal","x":2704,"y":208,"width":0,"height":0,"point":true,"rotation":0,"visible":true},{"id":12,"name":"card","type":"card","class":"card","x":4528,"y":208,"width":0,"height":0,"point":true,"rotation":0,"visible":true},{"id":13,"name":"card","type":"card","class":"card","x":4592,"y":208,"width":0,"height":0,"point":true,"rotation":0,"visible":true},{"id":14,"name":"card","type":"card","class":"card","x":6192,"y":208,"width":0,"height":0,"point":true,"rotation":0,"visible":true},{"id":15,"name":"royal","type":"royal","class":"royal","x":6256,"y":208,"width":0,"height":0,"point":true,"rotation":0,"visible":true},{"id":16,"name":"card","type":"card","class":"card","x":6320,"y":208,"width":0,"height":0,"point":true,"rotation":0,"visible":true},{"id":17,"name":"card","type":"card","class":"card","x":336,"y":240,"width":0,"height":0,"point":true,"rotation":0,"visible":true},{"id":18,"name":"card","type":"card","class":"card","x":592,"y":240,"width":0,"height":0,"point":true,"rotation":0,"visible":true},{"id":19,"name":"card","type":"card","class":"card","x":1520,"y":240,"width":0,"height":0,"point":true,"rotation":0,"visible":true},{"id":20,"name":"card","type":"card","class":"card","x":1584,"y":240,"width":0,"height":0,"point":true,"rotation":0,"visible":true},{"id":21,"name":"card","type":"card","class":"card","x":1648,"y":240,"width":0,"height":0,"point":true,"rotation":0,"visible":true},{"id":22,"name":"mob","type":"mob","class":"mob","x":5008,"y":256,"width":0,"height":0,"point":true,"rotation":0,"visible":true,"properties":[{"name":"variant","type":"string","value":"trommler"}]},{"id":23,"name":"cardplat","type":"cardplat","class":"cardplat","x":1120,"y":272,"width":0,"height":0,"point":true,"rotation":0,"visible":true,"properties":[{"name":"phase","type":"int","value":1000}]},{"id":24,"name":"cardplat","type":"cardplat","class":"cardplat","x":2016,"y":272,"width":0,"height":0,"point":true,"rotation":0,"visible":true,"properties":[{"name":"phase","type":"int","value":1400}]},{"id":25,"name":"cardplat","type":"cardplat","class":"cardplat","x":3392,"y":272,"width":0,"height":0,"point":true,"rotation":0,"visible":true,"properties":[{"name":"phase","type":"int","value":600}]},{"id":26,"name":"cardplat","type":"cardplat","class":"cardplat","x":3488,"y":272,"width":0,"height":0,"point":true,"rotation":0,"visible":true,"properties":[{"name":"phase","type":"int","value":0}]},{"id":27,"name":"cardplat","type":"cardplat","class":"cardplat","x":4768,"y":272,"width":0,"height":0,"point":true,"rotation":0,"visible":true,"properties":[{"name":"phase","type":"int","value":1600}]},{"id":28,"name":"card","type":"card","class":"card","x":6224,"y":272,"width":0,"height":0,"point":true,"rotation":0,"visible":true},{"id":29,"name":"card","type":"card","class":"card","x":6288,"y":272,"width":0,"height":0,"point":true,"rotation":0,"visible":true},{"id":30,"name":"spawn","type":"spawn","class":"spawn","x":112,"y":304,"width":0,"height":0,"point":true,"rotation":0,"visible":true},{"id":31,"name":"deco","type":"deco","class":"deco","x":400,"y":320,"width":0,"height":0,"point":true,"rotation":0,"visible":true,"properties":[{"name":"frame","type":"string","value":"deco_table_0"}]},{"id":32,"name":"deco","type":"deco","class":"deco","x":656,"y":320,"width":0,"height":0,"point":true,"rotation":0,"visible":true,"properties":[{"name":"frame","type":"string","value":"deco_table_0"}]},{"id":33,"name":"mob","type":"mob","class":"mob","x":784,"y":320,"width":0,"height":0,"point":true,"rotation":0,"visible":true,"properties":[{"name":"variant","type":"string","value":"schal"}]},{"id":34,"name":"deco","type":"deco","class":"deco","x":1328,"y":320,"width":0,"height":0,"point":true,"rotation":0,"visible":true,"properties":[{"name":"frame","type":"string","value":"deco_table_0"}]},{"id":35,"name":"mob","type":"mob","class":"mob","x":1616,"y":320,"width":0,"height":0,"point":true,"rotation":0,"visible":true},{"id":36,"name":"mob","type":"mob","class":"mob","x":1712,"y":320,"width":0,"height":0,"point":true,"rotation":0,"visible":true},{"id":37,"name":"mob","type":"mob","class":"mob","x":1872,"y":320,"width":0,"height":0,"point":true,"rotation":0,"visible":true,"properties":[{"name":"variant","type":"string","value":"nuckel"}]},{"id":38,"name":"mob","type":"mob","class":"mob","x":2320,"y":320,"width":0,"height":0,"point":true,"rotation":0,"visible":true,"properties":[{"name":"variant","type":"string","value":"schal"}]},{"id":39,"name":"checkpoint","type":"checkpoint","class":"checkpoint","x":2416,"y":320,"width":0,"height":0,"point":true,"rotation":0,"visible":true},{"id":40,"name":"mob","type":"mob","class":"mob","x":3664,"y":320,"width":0,"height":0,"point":true,"rotation":0,"visible":true,"properties":[{"name":"variant","type":"string","value":"fanblock"}]},{"id":41,"name":"mob","type":"mob","class":"mob","x":3792,"y":320,"width":0,"height":0,"point":true,"rotation":0,"visible":true,"properties":[{"name":"variant","type":"string","value":"schal"}]},{"id":42,"name":"mob","type":"mob","class":"mob","x":3920,"y":320,"width":0,"height":0,"point":true,"rotation":0,"visible":true,"properties":[{"name":"variant","type":"string","value":"fahne"}]},{"id":43,"name":"deco","type":"deco","class":"deco","x":3984,"y":320,"width":0,"height":0,"point":true,"rotation":0,"visible":true,"properties":[{"name":"frame","type":"string","value":"deco_table_0"}]},{"id":44,"name":"checkpoint","type":"checkpoint","class":"checkpoint","x":4048,"y":320,"width":0,"height":0,"point":true,"rotation":0,"visible":true},{"id":45,"name":"deco","type":"deco","class":"deco","x":5296,"y":320,"width":0,"height":0,"point":true,"rotation":0,"visible":true,"properties":[{"name":"frame","type":"string","value":"sign_vfb_0"}]},{"id":46,"name":"deco","type":"deco","class":"deco","x":5392,"y":320,"width":0,"height":0,"point":true,"rotation":0,"visible":true,"properties":[{"name":"frame","type":"string","value":"lamp_0"}]},{"id":47,"name":"flag","type":"flag","class":"flag","x":5712,"y":320,"width":0,"height":0,"point":true,"rotation":0,"visible":true},{"id":48,"name":"deco","type":"deco","class":"deco","x":6128,"y":320,"width":0,"height":0,"point":true,"rotation":0,"visible":true,"properties":[{"name":"frame","type":"string","value":"deco_table_0"}]},{"id":49,"name":"card","type":"card","class":"card","x":6160,"y":304,"width":0,"height":0,"point":true,"rotation":0,"visible":true},{"id":50,"name":"card","type":"card","class":"card","x":6256,"y":304,"width":0,"height":0,"point":true,"rotation":0,"visible":true},{"id":51,"name":"card","type":"card","class":"card","x":6352,"y":304,"width":0,"height":0,"point":true,"rotation":0,"visible":true},{"id":52,"name":"deco","type":"deco","class":"deco","x":6448,"y":320,"width":0,"height":0,"point":true,"rotation":0,"visible":true,"properties":[{"name":"frame","type":"string","value":"deco_table_0"}]},{"id":53,"name":"deco","type":"deco","class":"deco","x":144,"y":320,"width":0,"height":0,"point":true,"rotation":0,"visible":true,"properties":[{"name":"frame","value":"deco_carpet_0","type":"string"}]},{"id":54,"name":"deco","type":"deco","class":"deco","x":272,"y":160,"width":0,"height":0,"point":true,"rotation":0,"visible":true,"properties":[{"name":"frame","value":"deco_neon_0","type":"string"}]},{"id":55,"name":"deco","type":"deco","class":"deco","x":528,"y":320,"width":0,"height":0,"point":true,"rotation":0,"visible":true,"properties":[{"name":"frame","value":"chalk_same_friends_0","type":"string"}]},{"id":56,"name":"talk","type":"talk","class":"talk","x":96,"y":128,"width":64,"height":192,"point":false,"rotation":0,"visible":true,"properties":[{"name":"text","value":"¡SAME FRIENDS,\nDIFFERENT RULES!","type":"string"},{"name":"voice","value":"querico","type":"string"},{"name":"ms","value":1700,"type":"int"}]},{"id":57,"name":"talk","type":"talk","class":"talk","x":928,"y":128,"width":64,"height":192,"point":false,"rotation":0,"visible":true,"properties":[{"name":"text","value":"KARTE BLINKT = GLEICH WEG!","type":"string"},{"name":"voice","value":"si","type":"string"},{"name":"ms","value":1500,"type":"int"}]},{"id":58,"name":"section","type":"section","class":"section","x":1184,"y":0,"width":64,"height":448,"point":false,"rotation":0,"visible":true,"properties":[{"name":"track","value":"casino","type":"string"}]},{"id":59,"name":"deco","type":"deco","class":"deco","x":2256,"y":320,"width":0,"height":0,"point":true,"rotation":0,"visible":true,"properties":[{"name":"frame","value":"chalk_different_rules_0","type":"string"}]},{"id":60,"name":"deco","type":"deco","class":"deco","x":2384,"y":160,"width":0,"height":0,"point":true,"rotation":0,"visible":true,"properties":[{"name":"frame","value":"deco_neon_0","type":"string"}]},{"id":61,"name":"orbit","type":"orbit","class":"orbit","x":2704,"y":256,"width":0,"height":0,"point":true,"rotation":0,"visible":true,"properties":[{"name":"n","value":4,"type":"int"},{"name":"radius","value":96,"type":"int"},{"name":"speed","value":45,"type":"int"},{"name":"hub","value":true,"type":"bool"}]},{"id":62,"name":"talk","type":"talk","class":"talk","x":2944,"y":128,"width":64,"height":192,"point":false,"rotation":0,"visible":true,"properties":[{"name":"text","value":"DER JOKER ÖFFNET TÜREN…","type":"string"},{"name":"voice","value":"si","type":"string"},{"name":"ms","value":1400,"type":"int"}]},{"id":63,"name":"warp","type":"warp","class":"warp","x":3088,"y":320,"width":0,"height":0,"point":true,"rotation":0,"visible":true,"properties":[{"name":"id","value":"j1","type":"string"},{"name":"target","value":"j2","type":"string"},{"name":"kind","value":"door","type":"string"},{"name":"frame","value":"deco_joker_door_0","type":"string"}]},{"id":64,"name":"deco","type":"deco","class":"deco","x":3216,"y":160,"width":0,"height":0,"point":true,"rotation":0,"visible":true,"properties":[{"name":"frame","value":"deco_neon_0","type":"string"}]},{"id":65,"name":"section","type":"section","class":"section","x":4224,"y":0,"width":64,"height":448,"point":false,"rotation":0,"visible":true,"properties":[{"name":"track","value":"casino_finale","type":"string"}]},{"id":66,"name":"storm","type":"storm","class":"storm","x":4256,"y":192,"width":64,"height":128,"point":false,"rotation":0,"visible":true,"properties":[{"name":"count","value":9,"type":"int"},{"name":"every","value":1300,"type":"int"},{"name":"variants","value":"basic,basic,fanblock,basic,trommler,basic,fanblock,basic,basic","type":"string"},{"name":"text","value":"DER FANBLOCK KOMMT!","type":"string"}]},{"id":67,"name":"deco","type":"deco","class":"deco","x":5136,"y":320,"width":0,"height":0,"point":true,"rotation":0,"visible":true,"properties":[{"name":"frame","value":"banner_0","type":"string"}]},{"id":68,"name":"deco","type":"deco","class":"deco","x":5456,"y":320,"width":0,"height":0,"point":true,"rotation":0,"visible":true,"properties":[{"name":"frame","value":"banner_0","type":"string"}]},{"id":69,"name":"deco","type":"deco","class":"deco","x":5840,"y":320,"width":0,"height":0,"point":true,"rotation":0,"visible":true,"properties":[{"name":"frame","value":"deco_banner_red_0","type":"string"}]},{"id":70,"name":"deco","type":"deco","class":"deco","x":5776,"y":320,"width":0,"height":0,"point":true,"rotation":0,"visible":true,"properties":[{"name":"frame","value":"deco_chalk_inf_0","type":"string"}]},{"id":71,"name":"deco","type":"deco","class":"deco","x":5904,"y":320,"width":0,"height":0,"point":true,"rotation":0,"visible":true,"properties":[{"name":"frame","value":"sign_thron_0","type":"string"}]},{"id":72,"name":"talk","type":"talk","class":"talk","x":5632,"y":128,"width":64,"height":192,"point":false,"rotation":0,"visible":true,"properties":[{"name":"text","value":"¡GRACIAS, CAMBIO!","type":"string"},{"name":"voice","value":"gracias","type":"string"},{"name":"ms","value":1400,"type":"int"}]},{"id":73,"name":"warp","type":"warp","class":"warp","x":6064,"y":320,"width":0,"height":0,"point":true,"rotation":0,"visible":true,"properties":[{"name":"id","value":"j2","type":"string"},{"name":"target","value":"j1","type":"string"},{"name":"kind","value":"door","type":"string"},{"name":"frame","value":"deco_joker_door_0","type":"string"}]},{"id":74,"name":"deco","type":"deco","class":"deco","x":6384,"y":160,"width":0,"height":0,"point":true,"rotation":0,"visible":true,"properties":[{"name":"frame","value":"deco_neon_0","type":"string"}]}],"opacity":1,"visible":true,"x":0,"y":0,"draworder":"topdown"}]}