{"type":"map","version":"1.10","tiledversion":"1.11.0","orientation":"orthogonal","renderorder":"right-down","width":123,"height":14,"tilewidth":32,"tileheight":32,"infinite":false,"nextlayerid":4,"nextobjectid":39,"tilesets":[{"firstgid":1,"name":"tiles","image":"../tiles.png","imagewidth":256,"imageheight":96,"tilewidth":32,"tileheight":32,"tilecount":24,"columns":8,"margin":0,"spacing":0}],"layers":[{"id":1,"name":"back","type":"tilelayer","width":123,"height":14,"data":[0,0,0,0,0,0,0,0,0,0,0,0,0,0,0,0,0,0,0,0,0,0,0,0,0,0,0,0,0,0,0,0,0,0,0,0,0,0,0,0,0,0,0,0,0,0,0,0,0,0,0,0,0,0,0,0,0,0,0,0,0,0,0,0,0,0,0,0,0,0,0,0,0,0,0,0,0,0,0,0,0,0,0,0,0,0,0,0,0,0,0,0,0,0,0,0,0,0,0,0,0,0,0,0,0,0,0,0,0,0,0,0,0,0,0,0,0,0,0,0,0,0,0,0,0,0,0,0,0,0,0,0,0,0,0,0,0,0,0,0,0,0,0,0,0,0,0,0,0,0,0,0,0,0,0,0,0,0,0,0,0,0,0,0,0,0,0,0,0,0,0,0,0,0,0,0,0,0,0,0,0,0,0,0,0,0,0,0,0,0,0,0,0,0,0,0,0,0,0,0,0,0,0,0,0,0,0,0,0,0,0,0,0,0,0,0,0,0,0,0,0,0,0,0,0,0,0,0,0,0,0,0,0,0,0,0,0,0,0,0,0,0,0,0,0,0,0,0,0,0,0,0,0,0,0,0,0,0,0,0,0,0,0,0,0,0,0,0,0,0,0,0,0,0,0,0,0,0,0,0,0,0,0,0,0,0,0,0,0,0,0,0,0,0,0,0,0,0,0,0,0,0,0,0,0,0,0,0,0,0,0,0,0,0,0,0,0,0,0,0,0,0,0,0,0,0,0,0,0,0,0,0,0,0,0,0,0,0,0,0,0,0,0,0,0,0,0,0,0,0,0,0,0,0,0,0,0,0,0,0,0,0,0,0,0,0,0,0,0,0,0,0,0,0,0,0,0,0,0,0,0,0,0,0,0,0,0,0,0,0,0,0,0,0,0,0,0,0,0,0,0,0,0,0,0,0,0,0,0,0,0,0,0,0,0,0,0,0,0,0,0,0,0,0,0,0,0,0,0,0,0,0,0,0,0,0,0,0,0,0,0,0,0,0,0,0,0,0,0,0,0,0,0,0,0,0,0,0,0,0,0,0,0,0,0,0,0,0,0,0,0,0,0,0,0,0,0,0,0,0,0,0,0,0,0,0,0,0,0,0,0,0,0,0,0,0,0,0,0,0,0,0,0,0,0,0,0,0,0,0,0,0,0,0,0,0,0,0,0,0,0,0,0,0,0,0,0,0,0,0,0,0,0,0,0,0,0,0,0,0,0,0,0,0,0,0,0,0,0,0,0,0,0,0,0,0,0,0,0,0,0,0,0,0,0,0,0,0,0,0,0,0,0,0,0,0,0,0,0,0,0,0,0,0,0,0,0,0,0,0,0,0,0,0,0,0,0,0,0,0,0,0,0,0,0,0,0,0,0,0,0,0,0,0,0,0,0,0,0,0,0,0,0,0,0,0,0,0,0,0,0,0,0,0,0,0,0,0,0,0,0,0,0,0,0,0,0,0,0,0,0,0,0,0,0,0,0,0,0,0,0,0,0,0,0,0,0,0,0,0,0,0,0,0,0,0,0,0,0,0,0,0,0,0,0,0,0,0,0,0,0,0,0,0,0,0,0,0,0,0,0,0,0,0,0,0,0,0,0,0,0,0,0,0,0,0,0,0,0,0,0,0,0,0,0,0,0,0,0,0,0,0,0,0,0,0,0,0,0,0,0,0,0,0,0,0,0,0,0,0,0,0,0,0,0,0,0,0,0,0,0,0,0,0,0,0,0,0,0,0,0,0,0,0,0,0,0,0,0,0,0,0,0,0,0,0,0,0,0,0,0,0,0,0,0,0,0,0,0,0,0,0,0,0,0,0,0,0,0,0,0,0,0,0,0,0,0,0,0,0,0,0,0,0,0,0,0,0,0,0,0,0,0,0,0,0,0,0,0,0,0,0,0,0,0,0,0,0,0,0,0,0,0,0,0,0,0,0,0,0,0,0,0,0,0,0,0,0,0,0,0,0,0,0,0,0,0,0,0,0,0,0,0,0,0,0,0,0,0,0,0,0,0,0,0,0,0,0,0,0,0,0,0,0,0,0,0,0,0,0,0,0,0,0,0,0,0,0,0,0,0,0,0,0,0,0,0,0,0,0,0,0,0,0,0,0,0,0,0,0,0,0,0,0,0,0,0,0,0,0,0,0,0,0,0,0,0,0,0,0,0,0,0,0,0,0,0,0,0,0,0,0,0,0,0,0,0,0,0,0,0,0,0,0,0,0,0,0,0,0,0,0,0,0,0,0,0,0,0,0,0,0,0,0,0,0,0,0,0,0,0,0,0,0,0,0,0,0,0,0,0,0,0,0,0,0,0,0,0,0,0,0,0,0,0,0,0,0,0,0,0,0,0,0,0,0,0,0,0,0,0,0,0,0,0,0,0,0,0,0,0,0,0,0,0,0,0,0,0,0,0,0,0,0,0,0,0,0,0,0,0,0,0,0,0,0,0,0,0,0,0,0,0,0,0,0,0,0,0,0,0,0,0,0,0,0,0,0,0,0,0,0,0,0,0,0,0,0,0,0,0,0,0,0,0,0,0,0,0,0,0,0,0,0,0,0,0,0,0,0,0,0,0,0,0,0,0,0,0,0,0,0,0,0,0,0,0,0,0,0,0,0,0,0,0,0,0,0,0,0,0,0,0,0,0,0,0,0,0,0,0,0,0,0,0,0,0,0,0,0,0,0,0,0,0,0,0,0,0,0,0,0,0,0,0,0,0,0,0,0,0,0,0,0,0,0,0,0,0,0,0,0,0,0,0,0,0,0,0,0,0,0,0,0,0,0,0,0,0,0,0,0,0,0,0,0,0,0,0,0,0,0,0,0,0,0,0,0,0,0,0,0,0,0,0,0,0,0,0,0,0,0,0,0,0,0,0,0,0,0,0,0,0,0,0,0,0,0,0,0,0,0,0,0,0,0,0,0,0,0,0,0,0,0,0,0,0,0,0,0,0,0,0,0,0,0,0,0,0,0,0,0,0,0,0,0,0,0,0,0,0,0,0,0,0,0,0,0,0,0,0,0,0,0,0,0,0,0,0,0,0,0,0,0,0,0,0,0,0,0,0,0,0,0,0,0,0,0,0,0,0,0,0,0,0,0,0,0,0,0,0,0,0,0,0,0,0,0,0,0,0,0,0,0,0,0,0,0,0,0,0,0,0,0,0,0,0,0,0,0,0,0,0,0,0,0,0,0,0,0,0,0,0,0,0,0,0,0,0,0,0,0,0,0,0,0,0,0,0,0,0,0,0,0,0,0,0,0,0,0,0,0,0,0,0,0,0,0,0,0,0,0,0,0,0,0,0,0,0,0,0,0,0,0,0,0,0,0,0,0,0,0,0,0,0,0,0,0,0,0,0,0,0,0,0,0,0,0,0,0,0,0,0,0,0,0,0,0,0,0,0,0,0,0,0,0,0,0,0,0,0,0,0,0,0,0,0,0,0,0,0,0,0,0,0,0,0,0,0,0,0,0,0,0,0,0,0,0,0,0,0,0,0,0,0,0,0,0,0,0,0,0,0,0,0,0,0,0,0,0,0,0,0,0,0,0,0,0,0,0,0,0,0,0,0,0,0,0,0,0,0,0,0,0,0,0,0,0,0,0,0,0,0,0,0,0,0,0,0,0,0,0,0,0,0,0,0,0,0,0,0,0,0,0,0,0,0,0,0,0,0,0,0,0,0,0,0,0,0,0,0,0,0,0,0,0,0,0,0,0,0,0,0,0,0,0,0,0,0,0,0,0,0,0,0,0,0,0,0,0,0,0,0,0,0,0,0,0,0,0,0,0,0,0,0,0,0,0,0,0,0,0,0,0,0,0,0,0,0,0,0,0,0,0,0,0,0,0,0,0,0,0,0,0,0,0,0,0,0,0,0,0],"opacity":1,"visible":true,"x":0,"y":0},{"id":2,"name":"ground","type":"tilelayer","width":123,"height":14,"data":[0,0,0,0,0,0,0,0,0,0,0,0,0,0,0,0,0,0,0,0,0,0,0,0,0,0,0,0,0,0,0,0,0,0,0,0,0,0,0,0,0,0,0,0,0,0,0,0,0,0,0,0,0,0,0,0,0,0,0,0,0,0,0,0,0,0,0,0,0,0,0,0,0,0,0,0,0,0,0,0,0,0,0,0,0,0,0,0,0,0,0,0,0,0,0,0,0,0,0,0,0,0,0,0,0,0,0,0,0,0,0,0,0,0,0,0,0,0,0,0,0,0,0,0,0,0,0,0,0,0,0,0,0,0,0,0,0,0,0,0,0,0,0,0,0,0,0,0,0,0,0,0,0,0,0,0,0,0,0,0,0,0,0,0,0,0,0,0,0,0,0,0,0,0,0,0,0,0,0,0,0,0,0,0,0,0,0,0,0,0,0,0,0,0,0,0,0,0,0,0,0,0,0,0,0,0,0,0,0,0,0,0,0,0,0,0,0,0,0,0,0,0,0,0,0,0,0,0,0,0,0,0,0,0,0,0,0,0,0,0,0,0,0,0,0,0,0,0,0,0,0,0,0,0,0,0,0,0,0,0,0,0,0,0,0,0,0,0,0,0,0,0,0,0,0,0,0,0,0,0,0,0,0,0,0,0,0,0,0,0,0,0,0,0,0,0,0,0,0,0,0,0,0,0,0,0,0,0,0,0,0,0,0,0,0,0,0,0,0,0,0,0,0,0,0,0,0,0,0,0,0,0,0,0,0,0,0,0,0,0,0,0,0,0,0,0,0,0,0,0,0,0,0,0,0,0,0,0,0,0,0,0,0,0,0,0,0,0,0,0,0,0,0,0,0,0,0,0,0,0,0,0,0,0,0,0,0,0,0,0,0,0,0,0,0,0,0,0,0,0,0,0,0,0,0,0,0,0,0,0,0,0,0,0,0,0,0,0,0,0,0,0,0,0,0,0,0,0,0,0,0,0,0,0,0,0,0,0,0,0,0,0,0,0,0,0,0,0,0,0,0,0,0,0,0,0,0,0,0,0,0,0,0,0,0,0,0,0,0,0,0,0,0,0,0,0,0,0,0,0,0,0,0,0,0,0,0,0,0,0,0,0,0,0,0,0,0,0,0,0,0,0,0,0,0,0,0,0,0,0,0,0,0,0,0,0,0,0,0,0,0,0,0,0,0,0,0,0,0,0,0,0,0,0,0,0,0,0,0,0,0,0,0,0,0,0,0,0,0,0,0,0,0,0,0,0,0,0,0,0,0,0,0,0,0,0,0,0,0,0,0,0,0,0,0,0,0,0,0,0,0,0,0,0,0,0,0,0,0,0,0,0,0,0,0,0,0,0,0,0,0,0,0,0,0,0,0,0,0,0,0,0,0,0,0,0,0,0,0,0,0,0,0,0,0,0,0,0,0,0,0,0,0,0,0,0,0,0,0,0,0,0,0,0,0,0,0,0,0,0,0,0,0,0,0,0,0,0,0,0,0,0,0,0,0,0,0,0,0,0,0,0,0,0,0,0,0,0,0,0,0,0,0,0,0,0,0,13,14,14,15,0,0,0,0,0,0,0,0,0,0,0,0,0,0,0,0,0,0,0,0,0,0,0,0,0,0,0,0,0,0,0,0,0,0,0,0,0,0,0,0,0,0,0,0,0,0,0,0,0,0,0,0,0,0,0,0,0,0,0,0,0,0,0,0,0,0,0,0,0,0,0,0,0,0,0,0,0,0,0,0,0,0,0,0,0,0,0,0,0,0,0,0,0,0,0,0,0,0,0,0,0,13,14,14,15,0,0,0,0,0,0,0,0,0,0,0,0,0,0,0,0,0,0,0,0,0,0,0,0,0,0,0,0,0,0,0,0,0,0,0,0,0,0,0,0,0,0,0,0,0,0,0,0,0,0,0,0,0,0,0,0,0,0,0,0,0,0,0,0,0,0,0,0,0,0,0,0,0,0,0,0,0,0,0,0,0,0,0,0,0,0,0,0,0,0,0,0,0,0,0,0,0,0,0,0,0,0,0,0,0,0,0,0,0,0,0,0,0,0,0,0,0,0,0,0,0,0,0,0,0,0,0,0,0,0,0,13,14,14,15,0,0,0,0,0,0,0,0,0,0,0,0,0,0,0,0,0,0,0,0,0,0,0,0,0,0,0,0,0,0,0,0,0,0,0,0,0,0,0,0,0,0,0,0,0,0,0,0,0,0,0,0,0,0,0,0,0,0,0,0,0,0,0,0,0,0,0,0,0,0,0,0,0,0,0,0,0,0,0,0,0,0,0,0,0,0,0,0,0,0,0,0,0,0,0,0,0,1,2,2,2,2,2,2,3,0,0,0,0,0,0,0,0,0,0,0,0,0,4,0,0,0,0,0,0,0,0,0,0,0,0,0,0,0,0,0,0,0,0,0,0,0,0,0,0,0,0,0,0,0,0,0,0,0,0,0,0,0,0,0,0,0,0,0,0,0,0,0,0,0,0,0,0,0,0,0,0,0,0,0,0,0,0,0,0,0,0,0,0,0,0,0,0,0,0,0,0,0,0,0,0,0,0,0,0,0,0,0,0,0,0,0,0,0,0,0,0,0,0,0,5,6,6,6,6,6,6,7,0,0,0,0,0,0,0,0,0,0,0,0,0,8,0,0,0,0,0,0,0,0,0,0,0,0,0,0,0,0,0,0,0,0,0,0,0,0,0,0,0,0,0,0,0,0,0,0,0,0,0,0,0,0,0,0,0,0,0,0,0,0,0,0,0,0,0,0,0,0,0,1,2,2,2,2,2,2,2,2,2,2,2,2,2,2,2,2,2,2,3,0,0,0,1,2,2,2,2,2,2,2,2,2,2,2,2,2,2,3,0,0,0,1,2,6,6,6,6,6,6,6,6,2,2,2,2,2,2,2,3,0,0,0,0,1,6,2,2,2,2,2,2,2,2,2,2,2,2,2,2,2,2,2,2,2,3,0,0,0,1,2,2,2,2,2,2,2,2,2,2,2,2,2,2,3,0,0,0,1,2,2,2,2,2,2,2,2,2,2,2,2,3,0,5,6,6,6,6,6,6,6,6,6,6,6,6,6,6,6,6,6,6,7,0,0,0,5,6,6,6,6,6,6,6,6,6,6,6,6,6,6,7,0,0,0,5,6,6,6,6,6,6,6,6,6,6,6,6,6,6,6,6,7,0,0,0,0,5,6,6,6,6,6,6,6,6,6,6,6,6,6,6,6,6,6,6,6,6,7,0,0,0,5,6,6,6,6,6,6,6,6,6,6,6,6,6,6,7,0,0,0,5,6,6,6,6,6,6,6,6,6,6,6,6,7,0,5,6,6,6,6,6,6,6,6,6,6,6,6,6,6,6,6,6,6,7,0,0,0,5,6,6,6,6,6,6,6,6,6,6,6,6,6,6,7,0,0,0,5,6,6,6,6,6,6,6,6,6,6,6,6,6,6,6,6,7,0,0,0,0,5,6,6,6,6,6,6,6,6,6,6,6,6,6,6,6,6,6,6,6,6,7,0,0,0,5,6,6,6,6,6,6,6,6,6,6,6,6,6,6,7,0,0,0,5,6,6,6,6,6,6,6,6,6,6,6,6,7,0,9,10,10,10,10,10,10,10,10,10,10,10,10,10,10,10,10,10,10,11,0,0,0,9,10,10,10,10,10,10,10,10,10,10,10,10,10,10,11,0,0,0,9,10,10,10,10,10,10,10,10,10,10,10,10,10,10,10,10,11,0,0,0,0,9,10,10,10,10,10,10,10,10,10,10,10,10,10,10,10,10,10,10,10,10,11,0,0,0,9,10,10,10,10,10,10,10,10,10,10,10,10,10,10,11,0,0,0,9,10,10,10,10,10,10,10,10,10,10,10,10,11,0],"opacity":1,"visible":true,"x":0,"y":0},{"id":3,"name":"objects","type":"objectgroup","objects":[{"id":1,"name":"royal","type":"royal","class":"royal","x":2384,"y":112,"width":0,"height":0,"point":true,"rotation":0,"visible":true},{"id":2,"name":"card","type":"card","class":"card","x":2352,"y":144,"width":0,"height":0,"point":true,"rotation":0,"visible":true},{"id":3,"name":"card","type":"card","class":"card","x":2416,"y":144,"width":0,"height":0,"point":true,"rotation":0,"visible":true},{"id":4,"name":"card","type":"card","class":"card","x":400,"y":176,"width":0,"height":0,"point":true,"rotation":0,"visible":true},{"id":5,"name":"card","type":"card","class":"card","x":1744,"y":176,"width":0,"height":0,"point":true,"rotation":0,"visible":true},{"id":6,"name":"card","type":"card","class":"card","x":1808,"y":176,"width":0,"height":0,"point":true,"rotation":0,"visible":true},{"id":7,"name":"card","type":"card","class":"card","x":336,"y":208,"width":0,"height":0,"point":true,"rotation":0,"visible":true},{"id":8,"name":"card","type":"card","class":"card","x":464,"y":208,"width":0,"height":0,"point":true,"rotation":0,"visible":true},{"id":9,"name":"block","type":"block","class":"block","x":864,"y":192,"width":32,"height":32,"point":false,"rotation":0,"visible":true,"properties":[{"name":"contents","type":"string","value":"card"}]},{"id":10,"name":"block","type":"block","class":"block","x":992,"y":192,"width":32,"height":32,"point":false,"rotation":0,"visible":true,"properties":[{"name":"contents","type":"string","value":"kaffee"}]},{"id":11,"name":"card","type":"card","class":"card","x":2160,"y":208,"width":0,"height":0,"point":true,"rotation":0,"visible":true},{"id":12,"name":"card","type":"card","class":"card","x":2224,"y":208,"width":0,"height":0,"point":true,"rotation":0,"visible":true},{"id":13,"name":"block","type":"block","class":"block","x":2944,"y":192,"width":32,"height":32,"point":false,"rotation":0,"visible":true,"properties":[{"name":"contents","type":"string","value":"card"}]},{"id":14,"name":"card","type":"card","class":"card","x":272,"y":240,"width":0,"height":0,"point":true,"rotation":0,"visible":true},{"id":15,"name":"card","type":"card","class":"card","x":528,"y":240,"width":0,"height":0,"point":true,"rotation":0,"visible":true},{"id":16,"name":"card","type":"card","class":"card","x":912,"y":240,"width":0,"height":0,"point":true,"rotation":0,"visible":true},{"id":17,"name":"card","type":"card","class":"card","x":976,"y":240,"width":0,"height":0,"point":true,"rotation":0,"visible":true},{"id":18,"name":"mob","type":"mob","class":"mob","x":1552,"y":256,"width":0,"height":0,"point":true,"rotation":0,"visible":true},{"id":19,"name":"card","type":"card","class":"card","x":3056,"y":240,"width":0,"height":0,"point":true,"rotation":0,"visible":true},{"id":20,"name":"card","type":"card","class":"card","x":3120,"y":240,"width":0,"height":0,"point":true,"rotation":0,"visible":true},{"id":21,"name":"card","type":"card","class":"card","x":3184,"y":240,"width":0,"height":0,"point":true,"rotation":0,"visible":true},{"id":22,"name":"card","type":"card","class":"card","x":3632,"y":240,"width":0,"height":0,"point":true,"rotation":0,"visible":true},{"id":23,"name":"card","type":"card","class":"card","x":3696,"y":240,"width":0,"height":0,"point":true,"rotation":0,"visible":true},{"id":24,"name":"card","type":"card","class":"card","x":3760,"y":240,"width":0,"height":0,"point":true,"rotation":0,"visible":true},{"id":25,"name":"spawn","type":"spawn","class":"spawn","x":80,"y":304,"width":0,"height":0,"point":true,"rotation":0,"visible":true},{"id":26,"name":"sign","type":"sign","class":"sign","x":112,"y":320,"width":0,"height":0,"point":true,"rotation":0,"visible":true},{"id":27,"name":"bush","type":"bush","class":"bush","x":272,"y":320,"width":0,"height":0,"point":true,"rotation":0,"visible":true},{"id":28,"name":"mob","type":"mob","class":"mob","x":528,"y":320,"width":0,"height":0,"point":true,"rotation":0,"visible":true},{"id":29,"name":"palm","type":"palm","class":"palm","x":816,"y":320,"width":0,"height":0,"point":true,"rotation":0,"visible":true},{"id":30,"name":"mob","type":"mob","class":"mob","x":1136,"y":320,"width":0,"height":0,"point":true,"rotation":0,"visible":true},{"id":31,"name":"bush","type":"bush","class":"bush","x":1392,"y":320,"width":0,"height":0,"point":true,"rotation":0,"visible":true},{"id":32,"name":"checkpoint","type":"checkpoint","class":"checkpoint","x":2512,"y":320,"width":0,"height":0,"point":true,"rotation":0,"visible":true},{"id":33,"name":"mob","type":"mob","class":"mob","x":2608,"y":320,"width":0,"height":0,"point":true,"rotation":0,"visible":true},{"id":34,"name":"mob","type":"mob","class":"mob","x":2704,"y":320,"width":0,"height":0,"point":true,"rotation":0,"visible":true},{"id":35,"name":"mob","type":"mob","class":"mob","x":3152,"y":320,"width":0,"height":0,"point":true,"rotation":0,"visible":true},{"id":36,"name":"bush","type":"bush","class":"bush","x":3248,"y":320,"width":0,"height":0,"point":true,"rotation":0,"visible":true},{"id":37,"name":"palm","type":"palm","class":"palm","x":3568,"y":320,"width":0,"height":0,"point":true,"rotation":0,"visible":true},{"id":38,"name":"flag","type":"flag","class":"flag","x":3792,"y":320,"width":0,"height":0,"point":true,"rotation":0,"visible":true}],"opacity":1,"visible":true,"x":0,"y":0,"draworder":"topdown"}]}