{"type":"map","version":"1.10","tiledversion":"1.11.0","orientation":"orthogonal","renderorder":"right-down","width":125,"height":14,"tilewidth":32,"tileheight":32,"infinite":false,"nextlayerid":4,"nextobjectid":40,"tilesets":[{"firstgid":1,"name":"tiles","image":"../tiles.png","imagewidth":256,"imageheight":96,"tilewidth":32,"tileheight":32,"tilecount":24,"columns":8,"margin":0,"spacing":0}],"layers":[{"id":1,"name":"back","type":"tilelayer","width":125,"height":14,"data":[0,0,0,0,0,0,0,0,0,0,0,0,0,0,0,0,0,0,0,0,0,0,0,0,0,0,0,0,0,0,0,0,0,0,0,0,0,0,0,0,0,0,0,0,0,0,0,0,0,0,0,0,0,0,0,0,0,0,0,0,0,0,0,0,0,0,0,0,0,0,0,0,0,0,0,0,0,0,0,0,0,0,0,0,0,0,0,0,0,0,0,0,0,0,0,0,0,0,0,0,0,0,0,0,0,0,0,0,0,0,0,0,0,0,0,0,0,0,0,0,0,0,0,0,0,0,0,0,0,0,0,0,0,0,0,0,0,0,0,0,0,0,0,0,0,0,0,0,0,0,0,0,0,0,0,0,0,0,0,0,0,0,0,0,0,0,0,0,0,0,0,0,0,0,0,0,0,0,0,0,0,0,0,0,0,0,0,0,0,0,0,0,0,0,0,0,0,0,0,0,0,0,0,0,0,0,0,0,0,0,0,0,0,0,0,0,0,0,0,0,0,0,0,0,0,0,0,0,0,0,0,0,0,0,0,0,0,0,0,0,0,0,0,0,0,0,0,0,0,0,0,0,0,0,0,0,0,0,0,0,0,0,0,0,0,0,0,0,0,0,0,0,0,0,0,0,0,0,0,0,0,0,0,0,0,0,0,0,0,0,0,0,0,0,0,0,0,0,0,0,0,0,0,0,0,0,0,0,0,0,0,0,0,0,0,0,0,0,0,0,0,0,0,0,0,0,0,0,0,0,0,0,0,0,0,0,0,0,0,0,0,0,0,0,0,0,0,0,0,0,0,0,0,0,0,0,0,0,0,0,0,0,0,0,0,0,0,0,0,0,0,0,0,0,0,0,0,0,0,0,0,0,0,0,0,0,0,0,0,0,0,0,0,0,0,0,0,0,0,0,0,0,0,0,0,0,0,0,0,0,0,0,0,0,0,0,0,0,0,0,0,0,0,0,0,0,0,0,0,0,0,0,0,0,0,0,0,0,0,0,0,0,0,0,0,0,0,0,0,0,0,0,0,0,0,0,0,0,0,0,0,0,0,0,0,0,0,0,0,0,0,0,0,0,0,0,0,0,0,0,0,0,0,0,0,0,0,0,0,0,0,0,0,0,0,0,0,0,0,0,0,0,0,0,0,0,0,0,0,0,0,0,0,0,0,0,0,0,0,0,0,0,0,0,0,0,0,0,0,0,0,0,0,0,0,0,0,0,0,0,0,0,0,0,0,0,0,0,0,0,0,0,0,0,0,0,0,0,0,0,0,0,0,0,0,0,0,0,0,0,0,0,0,0,0,0,0,0,0,0,0,0,0,0,0,0,0,0,0,0,0,0,0,0,0,0,0,0,0,0,0,0,0,0,0,0,0,0,0,0,0,0,0,0,0,0,0,0,0,0,0,0,0,0,0,0,0,0,0,0,0,0,0,0,0,0,0,0,0,0,0,0,0,0,0,0,0,0,0,0,0,0,0,0,0,0,0,0,0,0,0,0,0,0,0,0,0,0,0,0,0,0,0,0,0,0,0,0,0,0,0,0,0,0,0,0,0,0,0,0,0,0,0,0,0,0,0,0,0,0,0,0,0,0,0,0,0,0,0,0,0,0,0,0,0,0,0,0,0,0,0,0,0,0,0,0,0,0,0,0,0,0,0,0,0,0,0,0,0,0,0,0,0,0,0,0,0,0,0,0,0,0,0,0,0,0,0,0,0,0,0,0,0,0,0,0,0,0,0,0,0,0,0,0,0,0,0,0,0,0,0,0,0,0,0,0,0,0,0,0,0,0,0,0,0,0,0,0,0,0,0,0,0,0,0,0,0,0,0,0,0,0,0,0,0,0,0,0,0,0,0,0,0,0,0,0,0,0,0,0,0,0,0,0,0,0,0,0,0,0,0,0,0,0,0,0,0,0,0,0,0,0,0,0,0,0,0,0,0,0,0,0,0,0,0,0,0,0,0,0,0,0,0,0,0,0,0,0,0,0,0,0,0,0,0,0,0,0,0,0,0,0,0,0,0,0,0,0,0,0,0,0,0,0,0,0,0,0,0,0,0,0,0,0,0,0,0,0,0,0,0,0,0,0,0,0,0,0,0,0,0,0,0,0,0,0,0,0,0,0,0,0,0,0,0,0,0,0,0,0,0,0,0,0,0,0,0,0,0,0,0,0,0,0,0,0,0,0,0,0,0,0,0,0,0,0,0,0,0,0,0,0,0,0,0,0,0,0,0,0,0,0,0,0,0,0,0,0,0,0,0,0,0,0,0,0,0,0,0,0,0,0,0,0,0,0,0,0,0,0,0,0,0,0,0,0,0,0,0,0,0,0,0,0,0,0,0,0,0,0,0,0,0,0,0,0,0,0,0,0,0,0,0,0,0,0,0,0,0,0,0,0,0,0,0,0,0,0,0,0,0,0,0,0,0,0,0,0,0,0,0,0,0,0,0,0,0,0,0,0,0,0,0,0,0,0,0,0,0,0,0,0,0,0,0,0,0,0,0,0,0,0,0,0,0,0,0,0,0,0,0,0,0,0,0,0,0,0,0,0,0,0,0,0,0,0,0,0,0,0,0,0,0,0,0,0,0,0,0,0,0,0,0,0,0,0,0,0,0,0,0,0,0,0,0,0,0,0,0,0,0,0,0,0,0,0,0,0,0,0,0,0,0,0,0,0,0,0,0,0,0,0,0,0,0,0,0,0,0,0,0,0,0,0,0,0,0,0,0,0,0,0,0,0,0,0,0,0,0,0,0,0,0,0,0,0,0,0,0,0,0,0,0,0,0,0,0,0,0,0,0,0,0,0,0,0,0,0,0,0,0,0,0,0,0,0,0,0,0,0,0,0,0,0,0,0,0,0,0,0,0,0,0,0,0,0,0,0,0,0,0,0,0,0,0,0,0,0,0,0,0,0,0,0,0,0,0,0,0,0,0,0,0,0,0,0,0,0,0,0,0,0,0,0,0,0,0,0,0,0,0,0,0,0,0,0,0,0,0,0,0,0,0,0,0,0,0,0,0,0,0,0,0,0,0,0,0,0,0,0,0,0,0,0,0,0,0,0,0,0,0,0,0,0,0,0,0,0,0,0,0,0,0,0,0,0,0,0,0,0,0,0,0,0,0,0,0,0,0,0,0,0,0,0,0,0,0,0,0,0,0,0,0,0,0,0,0,0,0,0,0,0,0,0,0,0,0,0,0,0,0,0,0,0,0,0,0,0,0,0,0,0,0,0,0,0,0,0,0,0,0,0,0,0,0,0,0,0,0,0,0,0,0,0,0,0,0,0,0,0,0,0,0,0,0,0,0,0,0,0,0,0,0,0,0,0,0,0,0,0,0,0,0,0,0,0,0,0,0,0,0,0,0,0,0,0,0,0,0,0,0,0,0,0,0,0,0,0,0,0,0,0,0,0,0,0,0,0,0,0,0,0,0,0,0,0,0,0,0,0,0,0,0,0,0,0,0,0,0,0,0,0,0,0,0,0,0,0,0,0,0,0,0,0,0,0,0,0,0,0,0,0,0,0,0,0,0,0,0,0,0,0,0,0,0,0,0,0,0,0,0,0,0,0,0,0,0,0,0,0,0,0,0,0,0,0,0,0,0,0,0,0,0,0,0,0,0,0,0,0,0,0,0,0,0,0,0,0,0,0,0,0,0,0,0,0,0,0,0,0,0,0,0,0,0,0,0,0,0,0,0,0,0,0,0,0,0,0,0,0,0,0,0,0,0,0,0,0,0,0,0,0,0,0,0,0,0,0,0,0,0,0,0,0,0,0,0,0,0,0,0,0,0,0,0,0,0,0,0,0,0,0,0,0,0,0,0,0,0,0,0,0,0,0,0,0,0,0,0,0,0,0,0,0,0,0,0,0,0,0,0,0,0,0,0,0,0,0,0,0,0,0,0,0,0,0,0,0,0,0,0,0,0,0,0,0,0,0,0,0],"opacity":1,"visible":true,"x":0,"y":0},{"id":2,"name":"ground","type":"tilelayer","width":125,"height":14,"data":[0,0,0,0,0,0,0,0,0,0,0,0,0,0,0,0,0,0,0,0,0,0,0,0,0,0,0,0,0,0,0,0,0,0,0,0,0,0,0,0,0,0,0,0,0,0,0,0,0,0,0,0,0,0,0,0,0,0,0,0,0,0,0,0,0,0,0,0,0,0,0,0,0,0,0,0,0,0,0,0,0,0,0,0,0,0,0,0,0,0,0,0,0,0,0,0,0,0,0,0,0,0,0,0,0,0,0,0,0,0,0,0,0,0,0,0,0,0,0,0,0,0,0,0,0,0,0,0,0,0,0,0,0,0,0,0,0,0,0,0,0,0,0,0,0,0,0,0,0,0,0,0,0,0,0,0,0,0,0,0,0,0,0,0,0,0,0,0,0,0,0,0,0,0,0,0,0,0,0,0,0,0,0,0,0,0,0,0,0,0,0,0,0,0,0,0,0,0,0,0,0,0,0,0,0,0,0,0,0,0,0,0,0,0,0,0,0,0,0,0,0,0,0,0,0,0,0,0,0,0,0,0,0,0,0,0,0,0,0,0,0,0,0,0,0,0,0,0,0,0,0,0,0,0,0,0,0,0,0,0,0,0,0,0,0,0,0,0,0,0,0,0,0,0,0,0,0,0,0,0,0,0,0,0,0,0,0,0,0,0,0,0,0,0,0,0,0,0,0,0,0,0,0,0,0,0,0,0,0,0,0,0,0,0,0,0,0,0,0,0,0,0,0,0,0,0,0,0,0,0,0,0,0,0,0,0,0,0,0,0,0,0,0,0,0,0,0,0,0,0,0,0,0,0,0,0,0,0,0,0,0,0,0,0,0,0,0,0,0,0,0,0,0,0,0,0,0,0,0,0,0,0,0,0,0,0,0,0,0,0,0,0,0,0,0,0,0,0,0,0,0,0,0,0,0,0,0,0,0,0,0,0,0,0,0,0,0,0,0,0,0,0,0,0,0,0,0,0,0,0,0,0,0,0,0,0,0,0,0,0,0,0,0,0,0,0,0,0,0,0,0,13,14,14,15,0,0,0,0,0,0,0,0,0,0,0,0,0,0,0,0,0,0,0,0,0,0,0,0,0,0,0,0,0,0,0,0,0,0,0,0,0,0,0,0,0,0,0,0,0,0,0,0,0,0,0,0,0,0,0,0,0,0,0,0,0,0,0,0,0,0,0,0,0,0,0,0,0,0,0,0,0,0,0,0,0,0,0,0,0,0,0,0,0,0,0,0,0,0,0,0,0,0,0,0,0,0,0,0,0,0,0,0,0,0,0,0,0,0,0,0,0,0,0,0,0,0,0,0,0,0,0,0,0,0,0,0,0,0,0,0,0,0,0,0,0,0,0,0,0,0,0,0,0,0,0,0,0,0,0,0,0,0,0,0,0,0,0,0,0,0,0,0,0,0,0,0,0,0,0,0,0,0,0,0,0,0,0,0,0,0,0,0,0,0,0,0,0,0,0,0,0,0,0,0,0,0,0,0,0,0,0,0,0,0,0,0,0,0,0,0,0,0,0,0,0,0,0,0,0,0,0,0,0,0,0,0,0,0,0,0,0,0,0,0,0,13,14,15,0,0,0,0,0,0,0,0,0,0,0,0,0,0,0,0,0,0,0,0,0,0,0,0,0,0,0,0,0,0,0,0,0,0,0,0,0,0,0,0,0,0,0,0,0,0,0,0,0,0,0,0,0,0,0,0,0,0,0,0,0,0,0,0,0,0,0,0,0,0,0,0,0,0,0,0,0,0,0,0,0,0,0,0,0,0,0,0,0,0,0,0,0,0,0,0,0,0,0,0,0,0,0,0,0,0,0,0,0,0,0,0,0,0,0,0,0,0,0,0,0,0,0,0,0,0,0,0,0,0,0,0,0,0,0,0,0,0,0,0,0,0,0,0,0,0,0,0,0,0,0,0,0,0,0,0,0,0,0,0,0,0,0,0,0,0,0,0,0,0,0,0,0,0,0,0,0,0,0,0,0,0,0,0,0,0,0,0,0,0,0,0,0,0,0,0,0,0,0,0,0,0,0,0,0,0,0,0,0,0,0,0,0,0,0,0,0,0,0,0,0,0,0,0,0,0,0,0,0,0,0,0,0,0,0,0,0,0,0,0,0,13,14,14,15,0,0,0,0,0,0,0,0,0,0,0,0,0,0,0,0,0,0,0,0,0,0,0,0,0,0,0,0,0,0,0,0,0,0,0,0,0,0,0,0,0,0,0,0,0,0,0,0,0,0,0,0,0,0,0,0,0,0,0,0,0,0,0,0,0,0,0,0,0,0,0,0,0,0,0,0,0,0,0,0,0,0,0,0,0,1,2,2,2,2,3,0,0,0,0,0,0,0,0,0,0,0,0,0,0,0,0,0,0,0,0,0,0,0,0,0,0,0,0,0,0,0,0,0,0,0,0,0,0,0,0,0,0,0,0,0,0,0,0,0,0,0,0,0,0,0,0,0,0,0,0,0,0,0,0,0,0,0,0,0,0,0,0,0,0,0,0,0,0,0,0,0,0,0,0,0,0,0,0,0,0,0,0,0,0,0,0,0,0,0,0,0,0,0,0,0,0,0,0,0,0,0,0,0,0,0,0,0,0,0,5,6,6,6,6,7,0,0,0,0,0,0,0,0,0,0,0,0,0,0,0,0,0,0,0,0,0,0,0,0,0,0,0,0,0,0,0,0,0,0,0,0,0,0,0,0,0,0,0,0,0,0,0,0,0,0,0,0,0,0,0,0,0,0,0,0,0,0,0,0,0,0,0,0,0,0,0,0,0,0,0,0,0,0,0,0,0,0,0,0,0,0,0,0,0,0,1,2,2,2,2,2,2,2,2,2,2,2,2,2,2,2,2,3,0,0,0,1,2,2,2,2,2,2,2,6,6,6,6,6,6,2,2,2,2,2,3,0,0,0,1,2,2,2,2,2,2,2,2,2,2,2,2,3,0,0,0,0,1,2,2,2,2,2,2,2,2,2,2,2,2,2,2,2,2,2,2,2,2,2,2,3,0,0,0,1,2,2,2,2,2,2,2,2,2,2,2,2,2,2,2,2,3,0,0,0,1,2,2,2,2,2,2,2,2,2,2,2,2,3,0,5,6,6,6,6,6,6,6,6,6,6,6,6,6,6,6,6,7,0,0,0,5,6,6,6,6,6,6,6,6,6,6,6,6,6,6,6,6,6,6,7,0,0,0,5,6,6,6,6,6,6,6,6,6,6,6,6,7,0,0,0,0,5,6,6,6,6,6,6,6,6,6,6,6,6,6,6,6,6,6,6,6,6,6,6,7,0,0,0,5,6,6,6,6,6,6,6,6,6,6,6,6,6,6,6,6,7,0,0,0,5,6,6,6,6,6,6,6,6,6,6,6,6,7,0,5,6,6,6,6,6,6,6,6,6,6,6,6,6,6,6,6,7,0,0,0,5,6,6,6,6,6,6,6,6,6,6,6,6,6,6,6,6,6,6,7,0,0,0,5,6,6,6,6,6,6,6,6,6,6,6,6,7,0,0,0,0,5,6,6,6,6,6,6,6,6,6,6,6,6,6,6,6,6,6,6,6,6,6,6,7,0,0,0,5,6,6,6,6,6,6,6,6,6,6,6,6,6,6,6,6,7,0,0,0,5,6,6,6,6,6,6,6,6,6,6,6,6,7,0,9,10,10,10,10,10,10,10,10,10,10,10,10,10,10,10,10,11,0,0,0,9,10,10,10,10,10,10,10,10,10,10,10,10,10,10,10,10,10,10,11,0,0,0,9,10,10,10,10,10,10,10,10,10,10,10,10,11,0,0,0,0,9,10,10,10,10,10,10,10,10,10,10,10,10,10,10,10,10,10,10,10,10,10,10,11,0,0,0,9,10,10,10,10,10,10,10,10,10,10,10,10,10,10,10,10,11,0,0,0,9,10,10,10,10,10,10,10,10,10,10,10,10,11,0],"opacity":1,"visible":true,"x":0,"y":0},{"id":3,"name":"objects","type":"objectgroup","objects":[{"id":1,"name":"royal","type":"royal","class":"royal","x":2512,"y":48,"width":0,"height":0,"point":true,"rotation":0,"visible":true},{"id":2,"name":"card","type":"card","class":"card","x":2480,"y":80,"width":0,"height":0,"point":true,"rotation":0,"visible":true},{"id":3,"name":"card","type":"card","class":"card","x":2544,"y":80,"width":0,"height":0,"point":true,"rotation":0,"visible":true},{"id":4,"name":"card","type":"card","class":"card","x":272,"y":176,"width":0,"height":0,"point":true,"rotation":0,"visible":true},{"id":5,"name":"card","type":"card","class":"card","x":208,"y":208,"width":0,"height":0,"point":true,"rotation":0,"visible":true},{"id":6,"name":"card","type":"card","class":"card","x":336,"y":208,"width":0,"height":0,"point":true,"rotation":0,"visible":true},{"id":7,"name":"block","type":"block","class":"block","x":736,"y":192,"width":32,"height":32,"point":false,"rotation":0,"visible":true,"properties":[{"name":"contents","type":"string","value":"kaffee"}]},{"id":8,"name":"card","type":"card","class":"card","x":2128,"y":208,"width":0,"height":0,"point":true,"rotation":0,"visible":true},{"id":9,"name":"card","type":"card","class":"card","x":2192,"y":208,"width":0,"height":0,"point":true,"rotation":0,"visible":true},{"id":10,"name":"block","type":"block","class":"block","x":2944,"y":192,"width":32,"height":32,"point":false,"rotation":0,"visible":true,"properties":[{"name":"contents","type":"string","value":"card"}]},{"id":11,"name":"block","type":"block","class":"block","x":3040,"y":192,"width":32,"height":32,"point":false,"rotation":0,"visible":true,"properties":[{"name":"contents","type":"string","value":"sport"}]},{"id":12,"name":"card","type":"card","class":"card","x":144,"y":240,"width":0,"height":0,"point":true,"rotation":0,"visible":true},{"id":13,"name":"card","type":"card","class":"card","x":400,"y":240,"width":0,"height":0,"point":true,"rotation":0,"visible":true},{"id":14,"name":"card","type":"card","class":"card","x":720,"y":240,"width":0,"height":0,"point":true,"rotation":0,"visible":true},{"id":15,"name":"card","type":"card","class":"card","x":784,"y":240,"width":0,"height":0,"point":true,"rotation":0,"visible":true},{"id":16,"name":"card","type":"card","class":"card","x":848,"y":240,"width":0,"height":0,"point":true,"rotation":0,"visible":true},{"id":17,"name":"mob","type":"mob","class":"mob","x":1040,"y":256,"width":0,"height":0,"point":true,"rotation":0,"visible":true,"properties":[{"name":"variant","type":"string","value":"nuckel"}]},{"id":18,"name":"card","type":"card","class":"card","x":1488,"y":240,"width":0,"height":0,"point":true,"rotation":0,"visible":true},{"id":19,"name":"card","type":"card","class":"card","x":1552,"y":240,"width":0,"height":0,"point":true,"rotation":0,"visible":true},{"id":20,"name":"card","type":"card","class":"card","x":3216,"y":240,"width":0,"height":0,"point":true,"rotation":0,"visible":true},{"id":21,"name":"card","type":"card","class":"card","x":3280,"y":240,"width":0,"height":0,"point":true,"rotation":0,"visible":true},{"id":22,"name":"card","type":"card","class":"card","x":3344,"y":240,"width":0,"height":0,"point":true,"rotation":0,"visible":true},{"id":23,"name":"card","type":"card","class":"card","x":3632,"y":240,"width":0,"height":0,"point":true,"rotation":0,"visible":true},{"id":24,"name":"card","type":"card","class":"card","x":3696,"y":240,"width":0,"height":0,"point":true,"rotation":0,"visible":true},{"id":25,"name":"card","type":"card","class":"card","x":3760,"y":240,"width":0,"height":0,"point":true,"rotation":0,"visible":true},{"id":26,"name":"spawn","type":"spawn","class":"spawn","x":80,"y":304,"width":0,"height":0,"point":true,"rotation":0,"visible":true},{"id":27,"name":"sign","type":"sign","class":"sign","x":112,"y":320,"width":0,"height":0,"point":true,"rotation":0,"visible":true},{"id":28,"name":"bush","type":"bush","class":"bush","x":400,"y":320,"width":0,"height":0,"point":true,"rotation":0,"visible":true},{"id":29,"name":"mob","type":"mob","class":"mob","x":1232,"y":320,"width":0,"height":0,"point":true,"rotation":0,"visible":true},{"id":30,"name":"pipe","type":"pipe","class":"pipe","x":1536,"y":320,"width":32,"height":64,"point":false,"rotation":0,"visible":true},{"id":31,"name":"mob","type":"mob","class":"mob","x":1680,"y":320,"width":0,"height":0,"point":true,"rotation":0,"visible":true,"properties":[{"name":"variant","type":"string","value":"nuckel"}]},{"id":32,"name":"bush","type":"bush","class":"bush","x":2320,"y":320,"width":0,"height":0,"point":true,"rotation":0,"visible":true},{"id":33,"name":"checkpoint","type":"checkpoint","class":"checkpoint","x":2640,"y":320,"width":0,"height":0,"point":true,"rotation":0,"visible":true},{"id":34,"name":"mob","type":"mob","class":"mob","x":2704,"y":320,"width":0,"height":0,"point":true,"rotation":0,"visible":true},{"id":35,"name":"mob","type":"mob","class":"mob","x":3152,"y":320,"width":0,"height":0,"point":true,"rotation":0,"visible":true,"properties":[{"name":"variant","type":"string","value":"nuckel"}]},{"id":36,"name":"mob","type":"mob","class":"mob","x":3312,"y":320,"width":0,"height":0,"point":true,"rotation":0,"visible":true},{"id":37,"name":"palm","type":"palm","class":"palm","x":3664,"y":320,"width":0,"height":0,"point":true,"rotation":0,"visible":true},{"id":38,"name":"mob","type":"mob","class":"mob","x":3792,"y":320,"width":0,"height":0,"point":true,"rotation":0,"visible":true},{"id":39,"name":"flag","type":"flag","class":"flag","x":3856,"y":320,"width":0,"height":0,"point":true,"rotation":0,"visible":true}],"opacity":1,"visible":true,"x":0,"y":0,"draworder":"topdown"}]}