{"type":"map","version":"1.10","tiledversion":"1.11.0","orientation":"orthogonal","renderorder":"right-down","width":129,"height":14,"tilewidth":32,"tileheight":32,"infinite":false,"nextlayerid":4,"nextobjectid":44,"tilesets":[{"firstgid":1,"name":"tiles","image":"../tiles.png","imagewidth":256,"imageheight":96,"tilewidth":32,"tileheight":32,"tilecount":24,"columns":8,"margin":0,"spacing":0}],"layers":[{"id":1,"name":"back","type":"tilelayer","width":129,"height":14,"data":[0,0,0,0,0,0,0,0,0,0,0,0,0,0,0,0,0,0,0,0,0,0,0,0,0,0,0,0,0,0,0,0,0,0,0,0,0,0,0,0,0,0,0,0,0,0,0,0,0,0,0,0,0,0,0,0,0,0,0,0,0,0,0,0,0,0,0,0,0,0,0,0,0,0,0,0,0,0,0,0,0,0,0,0,0,0,0,0,0,0,0,0,0,0,0,0,0,0,0,0,0,0,0,0,0,0,0,0,0,0,0,0,0,0,0,0,0,0,0,0,0,0,0,0,0,0,0,0,0,0,0,0,0,0,0,0,0,0,0,0,0,0,0,0,0,0,0,0,0,0,0,0,0,0,0,0,0,0,0,0,0,0,0,0,0,0,0,0,0,0,0,0,0,0,0,0,0,0,0,0,0,0,0,0,0,0,0,0,0,0,0,0,0,0,0,0,0,0,0,0,0,0,0,0,0,0,0,0,0,0,0,0,0,0,0,0,0,0,0,0,0,0,0,0,0,0,0,0,0,0,0,0,0,0,0,0,0,0,0,0,0,0,0,0,0,0,0,0,0,0,0,0,0,0,0,0,0,0,0,0,0,0,0,0,0,0,0,0,0,0,0,0,0,0,0,0,0,0,0,0,0,0,0,0,0,0,0,0,0,0,0,0,0,0,0,0,0,0,0,0,0,0,0,0,0,0,0,0,0,0,0,0,0,0,0,0,0,0,0,0,0,0,0,0,0,0,0,0,0,0,0,0,0,0,0,0,0,0,0,0,0,0,0,0,0,0,0,0,0,0,0,0,0,0,0,0,0,0,0,0,0,0,0,0,0,0,0,0,0,0,0,0,0,0,0,0,0,0,0,0,0,0,0,0,0,0,0,0,0,0,0,0,0,0,0,0,0,0,0,0,0,0,0,0,0,0,0,0,0,0,0,0,0,0,0,0,0,0,0,0,0,0,0,0,0,0,0,0,0,0,0,0,0,0,0,0,0,0,0,0,0,0,0,0,0,0,0,0,0,0,0,0,0,0,0,0,0,0,0,0,0,0,0,0,0,0,0,0,0,0,0,0,0,0,0,0,0,0,0,0,0,0,0,0,0,0,0,0,0,0,0,0,0,0,0,0,0,0,0,0,0,0,0,0,0,0,0,0,0,0,0,0,0,0,0,0,0,0,0,0,0,0,0,0,0,0,0,0,0,0,0,0,0,0,0,0,0,0,0,0,0,0,0,0,0,0,0,0,0,0,0,0,0,0,0,0,0,0,0,0,0,0,0,0,0,0,0,0,0,0,0,0,0,0,0,0,0,0,0,0,0,0,0,0,0,0,0,0,0,0,0,0,0,0,0,0,0,0,0,0,0,0,0,0,0,0,0,0,0,0,0,0,0,0,0,0,0,0,0,0,0,0,0,0,0,0,0,0,0,0,0,0,0,0,0,0,0,0,0,0,0,0,0,0,0,0,0,0,0,0,0,0,0,0,0,0,0,0,0,0,0,0,0,0,0,0,0,0,0,0,0,0,0,0,0,0,0,0,0,0,0,0,0,0,0,0,0,0,0,0,0,0,0,0,0,0,0,0,0,0,0,0,0,0,0,0,0,0,0,0,0,0,0,0,0,0,0,0,0,0,0,0,0,0,0,0,0,0,0,0,0,0,0,0,0,0,0,0,0,0,0,0,0,0,0,0,0,0,0,0,0,0,0,0,0,0,0,0,0,0,0,0,0,0,0,0,0,0,0,0,0,0,0,0,0,0,0,0,0,0,0,0,0,0,0,0,0,0,0,0,0,0,0,0,0,0,0,0,0,0,0,0,0,0,0,0,0,0,0,0,0,0,0,0,0,0,0,0,0,0,0,0,0,0,0,0,0,0,0,0,0,0,0,0,0,0,0,0,0,0,0,0,0,0,0,0,0,0,0,0,0,0,0,0,0,0,0,0,0,0,0,0,0,0,0,0,0,0,0,0,0,0,0,0,0,0,0,0,0,0,0,0,0,0,0,0,0,0,0,0,0,0,0,0,0,0,0,0,0,0,0,0,0,0,0,0,0,0,0,0,0,0,0,0,0,0,0,0,0,0,0,0,0,0,0,0,0,0,0,0,0,0,0,0,0,0,0,0,0,0,0,0,0,0,0,0,0,0,0,0,0,0,0,0,0,0,0,0,0,0,0,0,0,0,0,0,0,0,0,0,0,0,0,0,0,0,0,0,0,0,0,0,0,0,0,0,0,0,0,0,0,0,0,0,0,0,0,0,0,0,0,0,0,0,0,0,0,0,0,0,0,0,0,0,0,0,0,0,0,0,0,0,0,0,0,0,0,0,0,0,0,0,0,0,0,0,0,0,0,0,0,0,0,0,0,0,0,0,0,0,0,0,0,0,0,0,0,0,0,0,0,0,0,0,0,0,0,0,0,0,0,0,0,0,0,0,0,0,0,0,0,0,0,0,0,0,0,0,0,0,0,0,0,0,0,0,0,0,0,0,0,0,0,0,0,0,0,0,0,0,0,0,0,0,0,0,0,0,0,0,0,0,0,0,0,0,0,0,0,0,0,0,0,0,0,0,0,0,0,0,0,0,0,0,0,0,0,0,0,0,0,0,0,0,0,0,0,0,0,0,0,0,0,0,0,0,0,0,0,0,0,0,0,0,0,0,0,0,0,0,0,0,0,0,0,0,0,0,0,0,0,0,0,0,0,0,0,0,0,0,0,0,0,0,0,0,0,0,0,0,0,0,0,0,0,0,0,0,0,0,0,0,0,0,0,0,0,0,0,0,0,0,0,0,0,0,0,0,0,0,0,0,0,0,0,0,0,0,0,0,0,0,0,0,0,0,0,0,0,0,0,0,0,0,0,0,0,0,0,0,0,0,0,0,0,0,0,0,0,0,0,0,0,0,0,0,0,0,0,0,0,0,0,0,0,0,0,0,0,0,0,0,0,0,0,0,0,0,0,0,0,0,0,0,0,0,0,0,0,0,0,0,0,0,0,0,0,0,0,0,0,0,0,0,0,0,0,0,0,0,0,0,0,0,0,0,0,0,0,0,0,0,0,0,0,0,0,0,0,0,0,0,0,0,0,0,0,0,0,0,0,0,0,0,0,0,0,0,0,0,0,0,0,0,0,0,0,0,0,0,0,0,0,0,0,0,0,0,0,0,0,0,0,0,0,0,0,0,0,0,0,0,0,0,0,0,0,0,0,0,0,0,0,0,0,0,0,0,0,0,0,0,0,0,0,0,0,0,0,0,0,0,0,0,0,0,0,0,0,0,0,0,0,0,0,0,0,0,0,0,0,0,0,0,0,0,0,0,0,0,0,0,0,0,0,0,0,0,0,0,0,0,0,0,0,0,0,0,0,0,0,0,0,0,0,0,0,0,0,0,0,0,0,0,0,0,0,0,0,0,0,0,0,0,0,0,0,0,0,0,0,0,0,0,0,0,0,0,0,0,0,0,0,0,0,0,0,0,0,0,0,0,0,0,0,0,0,0,0,0,0,0,0,0,0,0,0,0,0,0,0,0,0,0,0,0,0,0,0,0,0,0,0,0,0,0,0,0,0,0,0,0,0,0,0,0,0,0,0,0,0,0,0,0,0,0,0,0,0,0,0,0,0,0,0,0,0,0,0,0,0,0,0,0,0,0,0,0,0,0,0,0,0,0,0,0,0,0,0,0,0,0,0,0,0,0,0,0,0,0,0,0,0,0,0,0,0,0,0,0,0,0,0,0,0,0,0,0,0,0,0,0,0,0,0,0,0,0,0,0,0,0,0,0,0,0,0,0,0,0,0,0,0,0,0,0,0,0,0,0,0,0,0,0,0,0,0,0,0,0,0,0,0,0,0,0,0,0,0,0,0,0,0,0,0,0,0,0,0,0,0,0,0,0,0,0,0,0,0,0,0,0,0,0,0,0,0,0,0,0,0,0,0,0,0,0,0,0,0,0,0,0,0,0,0,0,0,0,0,0,0,0,0,0,0,0,0,0,0,0,0,0,0,0,0,0,0,0,0,0,0,0,0,0,0,0,0,0,0,0,0,0,0,0,0,0,0,0,0,0,0,0,0,0,0,0],"opacity":1,"visible":true,"x":0,"y":0},{"id":2,"name":"ground","type":"tilelayer","width":129,"height":14,"data":[0,0,0,0,0,0,0,0,0,0,0,0,0,0,0,0,0,0,0,0,0,0,0,0,0,0,0,0,0,0,0,0,0,0,0,0,0,0,0,0,0,0,0,0,0,0,0,0,0,0,0,0,0,0,0,0,0,0,0,0,0,0,0,0,0,0,0,0,0,0,0,0,0,0,0,0,0,0,0,0,0,0,0,0,0,0,0,0,0,0,0,0,0,0,0,0,0,0,0,0,0,0,0,0,0,0,0,0,0,0,0,0,0,0,0,0,0,0,0,0,0,0,0,0,0,0,0,0,0,0,0,0,0,0,0,0,0,0,0,0,0,0,0,0,0,0,0,0,0,0,0,0,0,0,0,0,0,0,0,0,0,0,0,0,0,0,0,0,0,0,0,0,0,0,0,0,0,0,0,0,0,0,0,0,0,0,0,0,0,0,0,0,0,0,0,0,0,0,0,0,0,0,0,0,0,0,0,0,0,0,0,0,0,0,0,0,0,0,0,0,0,0,0,0,0,0,0,0,0,0,0,0,0,0,0,0,0,0,0,0,0,0,0,0,0,0,0,0,0,0,0,0,0,0,0,0,0,0,0,0,0,0,0,0,0,0,0,0,0,0,0,0,0,0,0,0,0,0,0,0,0,0,0,0,0,0,0,0,0,0,0,0,0,0,0,0,0,0,0,0,0,0,0,0,0,0,0,13,14,14,15,0,0,0,0,0,0,0,0,0,0,0,0,0,0,0,0,0,0,0,0,0,0,0,0,0,0,0,0,0,0,0,0,0,0,0,0,0,0,0,0,0,0,0,0,0,0,0,0,0,0,0,0,0,0,0,0,0,0,0,0,0,0,0,0,0,0,0,0,0,0,0,0,0,0,0,0,0,0,0,0,0,0,0,0,0,0,0,0,0,0,0,0,0,0,0,0,0,0,0,13,14,14,14,15,0,0,0,0,0,0,0,0,0,0,0,0,0,0,0,0,0,0,0,0,0,0,0,0,0,0,0,0,0,0,0,0,0,0,0,0,0,0,0,0,0,0,0,0,0,0,0,0,0,0,0,0,0,0,0,0,0,0,0,0,0,0,0,0,0,0,0,0,0,0,0,0,0,0,0,0,0,0,0,0,0,0,0,0,0,0,0,0,0,0,0,0,0,0,0,0,0,0,0,0,0,0,0,0,0,0,0,0,0,0,0,0,0,0,0,0,0,0,0,0,0,0,0,0,0,0,0,0,0,0,0,0,0,0,0,0,0,0,0,0,0,0,0,0,13,14,14,15,0,0,0,0,0,0,0,0,0,0,0,0,0,0,0,0,0,0,0,0,0,0,0,0,0,0,0,0,0,0,0,0,0,0,0,0,0,0,0,0,0,0,0,0,0,0,0,0,0,0,0,0,0,0,0,0,0,0,0,0,0,0,0,0,0,0,0,0,0,0,0,0,0,0,0,0,0,0,0,0,0,0,0,0,0,0,0,0,0,0,0,0,0,0,0,0,0,0,0,0,0,0,0,0,0,0,0,0,0,0,0,0,0,0,0,0,0,0,0,0,0,0,0,0,0,0,0,0,0,0,0,0,0,0,0,0,0,0,0,0,0,0,0,0,0,0,0,0,0,0,0,0,0,0,13,14,14,14,15,0,0,0,0,0,0,0,0,0,0,0,0,0,0,0,0,0,0,0,0,0,0,0,0,0,0,0,0,0,0,0,0,0,0,0,0,0,0,0,0,0,0,0,0,0,0,0,0,0,0,0,0,0,0,0,0,0,0,0,0,0,0,0,0,0,0,0,0,0,0,0,0,0,0,0,0,0,0,0,0,0,0,0,0,0,0,0,0,0,0,0,0,0,0,0,0,0,0,0,0,0,0,0,0,0,0,0,0,0,0,0,0,0,0,0,0,0,0,0,0,0,0,0,0,0,0,0,0,0,0,0,0,0,0,0,0,0,0,0,0,0,0,0,0,0,0,0,0,0,0,0,0,0,0,0,0,0,0,0,0,0,0,0,0,0,0,0,0,0,0,0,0,0,0,0,0,0,0,0,0,0,0,0,0,0,0,0,0,0,0,0,0,0,0,0,0,0,0,0,0,0,0,0,0,0,0,0,0,0,0,0,0,0,0,0,0,0,0,0,0,0,0,0,0,0,0,0,0,0,0,0,0,0,0,0,0,0,0,0,0,0,0,0,0,0,0,0,0,0,0,0,0,0,0,0,0,0,0,0,0,0,0,0,0,0,0,0,0,0,0,0,0,0,0,0,0,0,0,0,0,0,0,0,0,0,0,0,0,0,0,0,0,0,0,0,0,0,0,0,0,0,0,0,0,0,0,0,0,0,0,0,0,0,0,0,0,0,0,0,0,0,0,0,0,0,0,0,0,0,0,0,0,0,0,0,0,0,0,0,0,0,0,0,0,0,0,0,0,0,0,0,0,0,0,0,0,0,0,0,0,0,0,0,0,0,0,0,0,0,0,0,0,0,0,0,0,0,0,0,0,0,0,0,0,0,0,0,0,0,0,0,0,0,0,0,0,0,0,0,0,0,0,0,0,0,0,0,0,0,0,0,0,0,0,0,0,0,0,0,0,0,0,0,0,0,0,0,0,0,0,0,0,0,0,0,0,0,0,0,0,0,0,0,0,0,0,0,0,0,0,0,0,0,0,0,0,0,0,0,0,0,0,0,0,0,0,0,0,0,0,0,0,0,0,0,0,0,0,0,0,0,0,0,0,0,0,0,0,0,0,0,0,0,0,0,0,0,0,0,0,0,0,0,0,0,0,0,0,0,0,0,0,0,0,0,0,0,0,0,0,0,0,0,0,0,0,0,0,0,0,0,0,0,0,0,0,0,0,0,0,0,0,0,0,0,0,0,0,0,0,0,0,0,0,0,0,0,0,0,0,0,0,0,0,0,0,0,0,1,2,2,2,2,2,2,2,2,2,2,2,2,2,2,2,2,3,0,0,0,1,2,2,2,2,2,2,2,2,2,2,2,2,2,2,2,2,3,0,0,0,1,2,2,2,2,2,2,2,2,2,2,2,2,2,2,2,2,2,2,2,2,3,0,0,0,0,1,2,2,2,2,2,2,2,2,2,2,2,2,2,2,2,2,2,2,3,0,0,0,1,2,2,2,2,2,2,2,2,2,2,2,2,2,2,2,2,2,2,3,0,0,0,1,2,2,2,2,2,2,2,2,2,2,2,2,3,0,5,6,6,6,6,6,6,6,6,6,6,6,6,6,6,6,6,7,0,0,0,5,6,6,6,6,6,6,6,6,6,6,6,6,6,6,6,6,7,0,0,0,5,6,6,6,6,6,6,6,6,6,6,6,6,6,6,6,6,6,6,6,6,7,0,0,0,0,5,6,6,6,6,6,6,6,6,6,6,6,6,6,6,6,6,6,6,7,0,0,0,5,6,6,6,6,6,6,6,6,6,6,6,6,6,6,6,6,6,6,7,0,0,0,5,6,6,6,6,6,6,6,6,6,6,6,6,7,0,5,6,6,6,6,6,6,6,6,6,6,6,6,6,6,6,6,7,0,0,0,5,6,6,6,6,6,6,6,6,6,6,6,6,6,6,6,6,7,0,0,0,5,6,6,6,6,6,6,6,6,6,6,6,6,6,6,6,6,6,6,6,6,7,0,0,0,0,5,6,6,6,6,6,6,6,6,6,6,6,6,6,6,6,6,6,6,7,0,0,0,5,6,6,6,6,6,6,6,6,6,6,6,6,6,6,6,6,6,6,7,0,0,0,5,6,6,6,6,6,6,6,6,6,6,6,6,7,0,9,10,10,10,10,10,10,10,10,10,10,10,10,10,10,10,10,11,0,0,0,9,10,10,10,10,10,10,10,10,10,10,10,10,10,10,10,10,11,0,0,0,9,10,10,10,10,10,10,10,10,10,10,10,10,10,10,10,10,10,10,10,10,11,0,0,0,0,9,10,10,10,10,10,10,10,10,10,10,10,10,10,10,10,10,10,10,11,0,0,0,9,10,10,10,10,10,10,10,10,10,10,10,10,10,10,10,10,10,10,11,0,0,0,9,10,10,10,10,10,10,10,10,10,10,10,10,11,0],"opacity":1,"visible":true,"x":0,"y":0},{"id":3,"name":"objects","type":"objectgroup","objects":[{"id":1,"name":"royal","type":"royal","class":"royal","x":1648,"y":16,"width":0,"height":0,"point":true,"rotation":0,"visible":true},{"id":2,"name":"card","type":"card","class":"card","x":784,"y":80,"width":0,"height":0,"point":true,"rotation":0,"visible":true},{"id":3,"name":"card","type":"card","class":"card","x":848,"y":80,"width":0,"height":0,"point":true,"rotation":0,"visible":true},{"id":4,"name":"card","type":"card","class":"card","x":2352,"y":144,"width":0,"height":0,"point":true,"rotation":0,"visible":true},{"id":5,"name":"card","type":"card","class":"card","x":2416,"y":144,"width":0,"height":0,"point":true,"rotation":0,"visible":true},{"id":6,"name":"block","type":"block","class":"block","x":1856,"y":192,"width":32,"height":32,"point":false,"rotation":0,"visible":true,"properties":[{"name":"contents","type":"string","value":"kaffeepower"}]},{"id":7,"name":"block","type":"block","class":"block","x":3008,"y":192,"width":32,"height":32,"point":false,"rotation":0,"visible":true,"properties":[{"name":"contents","type":"string","value":"skater"}]},{"id":8,"name":"card","type":"card","class":"card","x":208,"y":240,"width":0,"height":0,"point":true,"rotation":0,"visible":true},{"id":9,"name":"card","type":"card","class":"card","x":272,"y":240,"width":0,"height":0,"point":true,"rotation":0,"visible":true},{"id":10,"name":"card","type":"card","class":"card","x":336,"y":240,"width":0,"height":0,"point":true,"rotation":0,"visible":true},{"id":11,"name":"card","type":"card","class":"card","x":3088,"y":240,"width":0,"height":0,"point":true,"rotation":0,"visible":true},{"id":12,"name":"card","type":"card","class":"card","x":3152,"y":240,"width":0,"height":0,"point":true,"rotation":0,"visible":true},{"id":13,"name":"card","type":"card","class":"card","x":3216,"y":240,"width":0,"height":0,"point":true,"rotation":0,"visible":true},{"id":14,"name":"card","type":"card","class":"card","x":3280,"y":240,"width":0,"height":0,"point":true,"rotation":0,"visible":true},{"id":15,"name":"card","type":"card","class":"card","x":3344,"y":240,"width":0,"height":0,"point":true,"rotation":0,"visible":true},{"id":16,"name":"card","type":"card","class":"card","x":3408,"y":240,"width":0,"height":0,"point":true,"rotation":0,"visible":true},{"id":17,"name":"card","type":"card","class":"card","x":3760,"y":240,"width":0,"height":0,"point":true,"rotation":0,"visible":true},{"id":18,"name":"card","type":"card","class":"card","x":3824,"y":240,"width":0,"height":0,"point":true,"rotation":0,"visible":true},{"id":19,"name":"card","type":"card","class":"card","x":3888,"y":240,"width":0,"height":0,"point":true,"rotation":0,"visible":true},{"id":20,"name":"spawn","type":"spawn","class":"spawn","x":80,"y":304,"width":0,"height":0,"point":true,"rotation":0,"visible":true},{"id":21,"name":"deco","type":"deco","class":"deco","x":144,"y":320,"width":0,"height":0,"point":true,"rotation":0,"visible":true,"properties":[{"name":"frame","type":"string","value":"deco_cup_big_0"}]},{"id":22,"name":"mob","type":"mob","class":"mob","x":400,"y":320,"width":0,"height":0,"point":true,"rotation":0,"visible":true},{"id":23,"name":"vent","type":"vent","class":"vent","x":816,"y":320,"width":0,"height":0,"point":true,"rotation":0,"visible":true},{"id":24,"name":"puddle","type":"puddle","class":"puddle","x":1008,"y":320,"width":0,"height":0,"point":true,"rotation":0,"visible":true},{"id":25,"name":"puddle","type":"puddle","class":"puddle","x":1040,"y":320,"width":0,"height":0,"point":true,"rotation":0,"visible":true},{"id":26,"name":"mob","type":"mob","class":"mob","x":1136,"y":320,"width":0,"height":0,"point":true,"rotation":0,"visible":true},{"id":27,"name":"vent","type":"vent","class":"vent","x":1456,"y":320,"width":0,"height":0,"point":true,"rotation":0,"visible":true},{"id":28,"name":"mob","type":"mob","class":"mob","x":1616,"y":320,"width":0,"height":0,"point":true,"rotation":0,"visible":true,"properties":[{"name":"variant","type":"string","value":"nuckel"}]},{"id":29,"name":"puddle","type":"puddle","class":"puddle","x":1776,"y":320,"width":0,"height":0,"point":true,"rotation":0,"visible":true},{"id":30,"name":"mob","type":"mob","class":"mob","x":1968,"y":320,"width":0,"height":0,"point":true,"rotation":0,"visible":true},{"id":31,"name":"checkpoint","type":"checkpoint","class":"checkpoint","x":2256,"y":320,"width":0,"height":0,"point":true,"rotation":0,"visible":true},{"id":32,"name":"vent","type":"vent","class":"vent","x":2384,"y":320,"width":0,"height":0,"point":true,"rotation":0,"visible":true},{"id":33,"name":"puddle","type":"puddle","class":"puddle","x":2544,"y":320,"width":0,"height":0,"point":true,"rotation":0,"visible":true},{"id":34,"name":"puddle","type":"puddle","class":"puddle","x":2576,"y":320,"width":0,"height":0,"point":true,"rotation":0,"visible":true},{"id":35,"name":"puddle","type":"puddle","class":"puddle","x":2608,"y":320,"width":0,"height":0,"point":true,"rotation":0,"visible":true},{"id":36,"name":"mob","type":"mob","class":"mob","x":2704,"y":320,"width":0,"height":0,"point":true,"rotation":0,"visible":true},{"id":37,"name":"deco","type":"deco","class":"deco","x":2768,"y":320,"width":0,"height":0,"point":true,"rotation":0,"visible":true,"properties":[{"name":"frame","type":"string","value":"deco_cup_big_0"}]},{"id":38,"name":"puddle","type":"puddle","class":"puddle","x":3120,"y":320,"width":0,"height":0,"point":true,"rotation":0,"visible":true},{"id":39,"name":"puddle","type":"puddle","class":"puddle","x":3216,"y":320,"width":0,"height":0,"point":true,"rotation":0,"visible":true},{"id":40,"name":"puddle","type":"puddle","class":"puddle","x":3312,"y":320,"width":0,"height":0,"point":true,"rotation":0,"visible":true},{"id":41,"name":"puddle","type":"puddle","class":"puddle","x":3408,"y":320,"width":0,"height":0,"point":true,"rotation":0,"visible":true},{"id":42,"name":"mob","type":"mob","class":"mob","x":3888,"y":320,"width":0,"height":0,"point":true,"rotation":0,"visible":true},{"id":43,"name":"flag","type":"flag","class":"flag","x":3984,"y":320,"width":0,"height":0,"point":true,"rotation":0,"visible":true}],"opacity":1,"visible":true,"x":0,"y":0,"draworder":"topdown"}]}