{"type":"map","version":"1.10","tiledversion":"1.11.0","orientation":"orthogonal","renderorder":"right-down","width":133,"height":14,"tilewidth":32,"tileheight":32,"infinite":false,"nextlayerid":4,"nextobjectid":41,"tilesets":[{"firstgid":1,"name":"tiles","image":"../tiles.png","imagewidth":256,"imageheight":96,"tilewidth":32,"tileheight":32,"tilecount":24,"columns":8,"margin":0,"spacing":0}],"layers":[{"id":1,"name":"back","type":"tilelayer","width":133,"height":14,"data":[0,0,0,0,0,0,0,0,0,0,0,0,0,0,0,0,0,0,0,0,0,0,0,0,0,0,0,0,0,0,0,0,0,0,0,0,0,0,0,0,0,0,0,0,0,0,0,0,0,0,0,0,0,0,0,0,0,0,0,0,0,0,0,0,0,0,0,0,0,0,0,0,0,0,0,0,0,0,0,0,0,0,0,0,0,0,0,0,0,0,0,0,0,0,0,0,0,0,0,0,0,0,0,0,0,0,0,0,0,0,0,0,0,0,0,0,0,0,0,0,0,0,0,0,0,0,0,0,0,0,0,0,0,0,0,0,0,0,0,0,0,0,0,0,0,0,0,0,0,0,0,0,0,0,0,0,0,0,0,0,0,0,0,0,0,0,0,0,0,0,0,0,0,0,0,0,0,0,0,0,0,0,0,0,0,0,0,0,0,0,0,0,0,0,0,0,0,0,0,0,0,0,0,0,0,0,0,0,0,0,0,0,0,0,0,0,0,0,0,0,0,0,0,0,0,0,0,0,0,0,0,0,0,0,0,0,0,0,0,0,0,0,0,0,0,0,0,0,0,0,0,0,0,0,0,0,0,0,0,0,0,0,0,0,0,0,0,0,0,0,0,0,0,0,0,0,0,0,0,0,0,0,0,0,0,0,0,0,0,0,0,0,0,0,0,0,0,0,0,0,0,0,0,0,0,0,0,0,0,0,0,0,0,0,0,0,0,0,0,0,0,0,0,0,0,0,0,0,0,0,0,0,0,0,0,0,0,0,0,0,0,0,0,0,0,0,0,0,0,0,0,0,0,0,0,0,0,0,0,0,0,0,0,0,0,0,0,0,0,0,0,0,0,0,0,0,0,0,0,0,0,0,0,0,0,0,0,0,0,0,0,0,0,0,0,0,0,0,0,0,0,0,0,0,0,0,0,0,0,0,0,0,0,0,0,0,0,0,0,0,0,0,0,0,0,0,0,0,0,0,0,0,0,0,0,0,0,0,0,0,0,0,0,0,0,0,0,0,0,0,0,0,0,0,0,0,0,0,0,0,0,0,0,0,0,0,0,0,0,0,0,0,0,0,0,0,0,0,0,0,0,0,0,0,0,0,0,0,0,0,0,0,0,0,0,0,0,0,0,0,0,0,0,0,0,0,0,0,0,0,0,0,0,0,0,0,0,0,0,0,0,0,0,0,0,0,0,0,0,0,0,0,0,0,0,0,0,0,0,0,0,0,0,0,0,0,0,0,0,0,0,0,0,0,0,0,0,0,0,0,0,0,0,0,0,0,0,0,0,0,0,0,0,0,0,0,0,0,0,0,0,0,0,0,0,0,0,0,0,0,0,0,0,0,0,0,0,0,0,0,0,0,0,0,0,0,0,0,0,0,0,0,0,0,0,0,0,0,0,0,0,0,0,0,0,0,0,0,0,0,0,0,0,0,0,0,0,0,0,0,0,0,0,0,0,0,0,0,0,0,0,0,0,0,0,0,0,0,0,0,0,0,0,0,0,0,0,0,0,0,0,0,0,0,0,0,0,0,0,0,0,0,0,0,0,0,0,0,0,0,0,0,0,0,0,0,0,0,0,0,0,0,0,0,0,0,0,0,0,0,0,0,0,0,0,0,0,0,0,0,0,0,0,0,0,0,0,0,0,0,0,0,0,0,0,0,0,0,0,0,0,0,0,0,0,0,0,0,0,0,0,0,0,0,0,0,0,0,0,0,0,0,0,0,0,0,0,0,0,0,0,0,0,0,0,0,0,0,0,0,0,0,0,0,0,0,0,0,0,0,0,0,0,0,0,0,0,0,0,0,0,0,0,0,0,0,0,0,0,0,0,0,0,0,0,0,0,0,0,0,0,0,0,0,0,0,0,0,0,0,0,0,0,0,0,0,0,0,0,0,0,0,0,0,0,0,0,0,0,0,0,0,0,0,0,0,0,0,0,0,0,0,0,0,0,0,0,0,0,0,0,0,0,0,0,0,0,0,0,0,0,0,0,0,0,0,0,0,0,0,0,0,0,0,0,0,0,0,0,0,0,0,0,0,0,0,0,0,0,0,0,0,0,0,0,0,0,0,0,0,0,0,0,0,0,0,0,0,0,0,0,0,0,0,0,0,0,0,0,0,0,0,0,0,0,0,0,0,0,0,0,0,0,0,0,0,0,0,0,0,0,0,0,0,0,0,0,0,0,0,0,0,0,0,0,0,0,0,0,0,0,0,0,0,0,0,0,0,0,0,0,0,0,0,0,0,0,0,0,0,0,0,0,0,0,0,0,0,0,0,0,0,0,0,0,0,0,0,0,0,0,0,0,0,0,0,0,0,0,0,0,0,0,0,0,0,0,0,0,0,0,0,0,0,0,0,0,0,0,0,0,0,0,0,0,0,0,0,0,0,0,0,0,0,0,0,0,0,0,0,0,0,0,0,0,0,0,0,0,0,0,0,0,0,0,0,0,0,0,0,0,0,0,0,0,0,0,0,0,0,0,0,0,0,0,0,0,0,0,0,0,0,0,0,0,0,0,0,0,0,0,0,0,0,0,0,0,0,0,0,0,0,0,0,0,0,0,0,0,0,0,0,0,0,0,0,0,0,0,0,0,0,0,0,0,0,0,0,0,0,0,0,0,0,0,0,0,0,0,0,0,0,0,0,0,0,0,0,0,0,0,0,0,0,0,0,0,0,0,0,0,0,0,0,0,0,0,0,0,0,0,0,0,0,0,0,0,0,0,0,0,0,0,0,0,0,0,0,0,0,0,0,0,0,0,0,0,0,0,0,0,0,0,0,0,0,0,0,0,0,0,0,0,0,0,0,0,0,0,0,0,0,0,0,0,0,0,0,0,0,0,0,0,0,0,0,0,0,0,0,0,0,0,0,0,0,0,0,0,0,0,0,0,0,0,0,0,0,0,0,0,0,0,0,0,0,0,0,0,0,0,0,0,0,0,0,0,0,0,0,0,0,0,0,0,0,0,0,0,0,0,0,0,0,0,0,0,0,0,0,0,0,0,0,0,0,0,0,0,0,0,0,0,0,0,0,0,0,0,0,0,0,0,0,0,0,0,0,0,0,0,0,0,0,0,0,0,0,0,0,0,0,0,0,0,0,0,0,0,0,0,0,0,0,0,0,0,0,0,0,0,0,0,0,0,0,0,0,0,0,0,0,0,0,0,0,0,0,0,0,0,0,0,0,0,0,0,0,0,0,0,0,0,0,0,0,0,0,0,0,0,0,0,0,0,0,0,0,0,0,0,0,0,0,0,0,0,0,0,0,0,0,0,0,0,0,0,0,0,0,0,0,0,0,0,0,0,0,0,0,0,0,0,0,0,0,0,0,0,0,0,0,0,0,0,0,0,0,0,0,0,0,0,0,0,0,0,0,0,0,0,0,0,0,0,0,0,0,0,0,0,0,0,0,0,0,0,0,0,0,0,0,0,0,0,0,0,0,0,0,0,0,0,0,0,0,0,0,0,0,0,0,0,0,0,0,0,0,0,0,0,0,0,0,0,0,0,0,0,0,0,0,0,0,0,0,0,0,0,0,0,0,0,0,0,0,0,0,0,0,0,0,0,0,0,0,0,0,0,0,0,0,0,0,0,0,0,0,0,0,0,0,0,0,0,0,0,0,0,0,0,0,0,0,0,0,0,0,0,0,0,0,0,0,0,0,0,0,0,0,0,0,0,0,0,0,0,0,0,0,0,0,0,0,0,0,0,0,0,0,0,0,0,0,0,0,0,0,0,0,0,0,0,0,0,0,0,0,0,0,0,0,0,0,0,0,0,0,0,0,0,0,0,0,0,0,0,0,0,0,0,0,0,0,0,0,0,0,0,0,0,0,0,0,0,0,0,0,0,0,0,0,0,0,0,0,0,0,0,0,0,0,0,0,0,0,0,0,0,0,0,0,0,0,0,0,0,0,0,0,0,0,0,0,0,0,0,0,0,0,0,0,0,0,0,0,0,0,0,0,0,0,0,0,0,0,0,0,0,0,0,0,0,0,0,0,0,0,0,0,0,0,0,0,0,0,0,0,0,0,0,0,0,0,0,0,0,0,0,0,0,0,0,0,0,0,0,0,0,0,0,0,0,0,0,0,0,0,0,0,0,0,0,0,0,0,0,0,0,0,0,0,0,0,0,0,0,0,0,0,0,0,0,0,0,0,0,0,0,0,0,0,0,0,0,0,0,0,0,0,0,0],"opacity":1,"visible":true,"x":0,"y":0},{"id":2,"name":"ground","type":"tilelayer","width":133,"height":14,"data":[0,0,0,0,0,0,0,0,0,0,0,0,0,0,0,0,0,0,0,0,0,0,0,0,0,0,0,0,0,0,0,0,0,0,0,0,0,0,0,0,0,0,0,0,0,0,0,0,0,0,0,0,0,0,0,0,0,0,0,0,0,0,0,0,0,0,0,0,0,0,0,0,0,0,0,0,0,0,0,0,0,0,0,0,0,0,0,0,0,0,0,0,0,0,0,0,0,0,0,0,0,0,0,0,0,0,0,0,0,0,0,0,0,0,0,0,0,0,0,0,0,0,0,0,0,0,0,0,0,0,0,0,0,0,0,0,0,0,0,0,0,0,0,0,0,0,0,0,0,0,0,0,0,0,0,0,0,0,0,0,0,0,0,0,0,0,0,0,0,0,0,0,0,0,0,0,0,0,0,0,0,0,0,0,0,0,0,0,0,0,0,0,0,0,0,0,0,0,0,0,0,0,0,0,0,0,0,0,0,0,0,0,0,0,0,0,0,0,0,0,0,0,0,0,0,0,0,0,0,0,0,0,0,0,0,0,0,0,0,0,0,0,0,0,0,0,0,0,0,0,0,0,0,0,0,0,0,0,0,0,0,0,0,0,0,0,0,0,0,0,0,0,0,0,0,0,0,0,0,0,0,0,0,0,0,0,0,0,0,0,0,0,0,0,0,0,0,0,0,0,0,0,0,0,0,0,0,0,0,0,0,0,0,0,0,0,0,0,0,0,0,0,0,0,0,0,0,0,0,0,0,0,0,0,0,0,0,0,0,0,0,0,0,0,0,0,0,0,0,0,0,0,0,0,0,0,0,0,0,0,0,0,0,0,0,0,0,0,0,0,0,0,0,0,0,0,0,0,0,0,0,0,0,0,0,0,0,0,0,0,0,0,0,0,0,0,0,0,0,0,0,0,0,0,0,0,0,0,0,0,0,0,0,0,0,0,0,0,0,0,0,0,0,0,0,0,0,0,0,0,0,0,0,0,0,0,0,0,0,0,0,0,0,0,0,0,0,0,0,0,0,0,0,0,0,0,0,0,0,0,0,0,0,0,0,0,0,0,0,0,0,0,0,0,0,0,0,0,0,0,0,0,0,0,0,0,0,0,0,0,0,0,0,0,0,0,0,0,0,0,0,0,0,0,0,0,0,0,0,0,0,0,0,0,0,0,0,0,0,0,0,0,0,0,0,0,0,0,0,0,0,0,0,0,0,0,0,0,0,0,0,0,0,0,0,0,0,0,0,0,0,0,0,0,0,0,0,0,0,0,0,0,0,0,0,0,0,0,0,0,0,0,0,0,0,0,0,0,0,0,0,0,0,0,0,0,0,0,0,0,0,0,0,0,0,0,0,0,0,0,0,0,0,0,0,0,0,0,0,0,0,0,13,14,15,0,0,0,0,0,0,0,0,0,0,0,0,0,0,0,0,0,0,0,0,0,0,0,0,0,0,0,0,0,0,0,0,0,0,0,0,0,0,0,0,0,0,0,0,0,0,0,0,0,0,0,0,0,0,0,0,0,0,0,0,0,0,0,0,0,0,0,0,0,0,0,0,0,0,0,0,0,0,0,0,0,0,0,0,0,0,0,0,0,0,0,0,0,0,0,0,0,0,0,0,0,0,0,0,0,0,0,0,0,0,0,0,0,0,0,0,0,0,0,0,0,0,0,0,0,0,0,0,0,0,0,0,0,0,0,0,0,0,0,0,0,0,0,0,0,0,0,0,0,0,0,0,0,0,0,0,0,0,0,0,0,0,0,0,0,0,0,0,0,0,0,0,0,0,0,0,0,0,0,0,0,0,0,0,0,0,0,0,0,0,0,0,0,0,0,0,0,0,0,0,0,0,0,0,0,0,0,0,0,0,0,0,0,0,0,0,0,0,0,0,0,0,0,0,0,0,0,0,0,0,0,0,0,0,0,0,0,0,0,0,0,0,0,0,0,0,0,0,0,0,0,0,0,0,0,0,0,0,0,0,0,0,0,0,0,0,0,0,0,0,0,0,0,0,0,0,0,0,0,0,0,0,0,0,0,0,0,0,0,0,0,0,0,0,0,0,0,0,0,0,0,0,0,0,0,0,0,0,0,0,0,0,0,0,0,0,0,0,0,0,0,0,0,0,0,0,0,0,0,0,0,0,0,0,0,0,0,0,0,0,0,0,0,0,0,0,0,0,0,0,0,0,0,0,0,0,0,0,0,0,0,0,0,0,0,0,0,0,0,0,0,0,0,0,0,0,0,0,19,19,19,0,0,0,0,0,0,0,0,0,0,0,0,0,0,0,0,0,0,0,0,0,0,0,0,0,0,0,0,0,0,0,0,0,0,0,0,0,0,0,0,0,0,0,0,0,0,0,0,0,0,0,0,0,0,0,0,0,0,0,0,0,0,0,0,0,0,0,0,0,0,0,0,0,0,0,0,0,0,0,0,0,0,0,0,0,0,0,0,0,0,0,0,0,19,19,19,0,0,0,0,0,0,0,0,0,0,0,0,0,0,0,0,0,0,0,0,0,0,0,0,0,0,0,0,0,1,2,2,2,2,7,0,0,0,0,0,0,0,0,0,0,0,0,0,0,0,0,0,0,0,0,0,0,0,0,0,0,0,0,0,0,0,0,0,0,0,0,0,0,0,0,0,0,0,0,0,0,0,0,0,0,0,0,0,0,0,0,0,0,0,0,0,0,0,0,0,0,0,0,0,0,0,0,0,0,0,0,0,0,0,0,0,0,0,0,0,0,0,0,0,0,0,0,0,0,0,19,19,19,0,0,0,0,0,0,0,0,0,0,0,0,0,0,0,0,0,0,0,0,0,0,0,0,0,0,0,0,0,5,6,6,6,6,7,0,0,0,0,0,0,0,0,0,0,0,0,0,0,0,0,0,0,0,0,0,0,0,0,0,0,0,0,0,0,0,0,0,0,0,0,0,0,0,0,0,0,0,0,0,0,0,0,0,0,0,0,0,0,0,0,0,0,0,0,0,0,0,0,0,0,0,0,0,0,1,2,2,2,2,2,2,2,2,2,2,2,2,2,2,2,2,3,0,0,0,1,2,2,2,6,6,6,2,2,2,2,2,2,2,2,2,2,2,2,2,2,3,0,0,0,0,1,2,2,2,2,2,2,2,2,2,6,6,6,6,6,6,2,3,0,0,0,1,2,2,2,2,2,2,2,2,2,2,2,2,2,2,2,2,2,2,2,2,2,2,3,0,0,0,1,2,2,2,2,2,2,2,2,2,2,2,2,2,2,2,2,2,2,3,0,0,0,1,2,2,2,2,2,2,2,2,2,2,2,2,3,0,5,6,6,6,6,6,6,6,6,6,6,6,6,6,6,6,6,7,0,0,0,5,6,6,6,6,6,6,6,6,6,6,6,6,6,6,6,6,6,6,6,6,7,0,0,0,0,5,6,6,6,6,6,6,6,6,6,6,6,6,6,6,6,6,7,0,0,0,5,6,6,6,6,6,6,6,6,6,6,6,6,6,6,6,6,6,6,6,6,6,6,7,0,0,0,5,6,6,6,6,6,6,6,6,6,6,6,6,6,6,6,6,6,6,7,0,0,0,5,6,6,6,6,6,6,6,6,6,6,6,6,7,0,5,6,6,6,6,6,6,6,6,6,6,6,6,6,6,6,6,7,0,0,0,5,6,6,6,6,6,6,6,6,6,6,6,6,6,6,6,6,6,6,6,6,7,0,0,0,0,5,6,6,6,6,6,6,6,6,6,6,6,6,6,6,6,6,7,0,0,0,5,6,6,6,6,6,6,6,6,6,6,6,6,6,6,6,6,6,6,6,6,6,6,7,0,0,0,5,6,6,6,6,6,6,6,6,6,6,6,6,6,6,6,6,6,6,7,0,0,0,5,6,6,6,6,6,6,6,6,6,6,6,6,7,0,9,10,10,10,10,10,10,10,10,10,10,10,10,10,10,10,10,11,0,0,0,9,10,10,10,10,10,10,10,10,10,10,10,10,10,10,10,10,10,10,10,10,11,0,0,0,0,9,10,10,10,10,10,10,10,10,10,10,10,10,10,10,10,10,11,0,0,0,9,10,10,10,10,10,10,10,10,10,10,10,10,10,10,10,10,10,10,10,10,10,10,11,0,0,0,9,10,10,10,10,10,10,10,10,10,10,10,10,10,10,10,10,10,10,11,0,0,0,9,10,10,10,10,10,10,10,10,10,10,10,10,11,0],"opacity":1,"visible":true,"x":0,"y":0},{"id":3,"name":"objects","type":"objectgroup","objects":[{"id":1,"name":"royal","type":"royal","class":"royal","x":2608,"y":80,"width":0,"height":0,"point":true,"rotation":0,"visible":true},{"id":2,"name":"block","type":"block","class":"block","x":448,"y":192,"width":32,"height":32,"point":false,"rotation":0,"visible":true,"properties":[{"name":"contents","type":"string","value":"sport"}]},{"id":3,"name":"card","type":"card","class":"card","x":848,"y":208,"width":0,"height":0,"point":true,"rotation":0,"visible":true},{"id":4,"name":"card","type":"card","class":"card","x":912,"y":208,"width":0,"height":0,"point":true,"rotation":0,"visible":true},{"id":5,"name":"block","type":"block","class":"block","x":2336,"y":192,"width":32,"height":32,"point":false,"rotation":0,"visible":true,"properties":[{"name":"contents","type":"string","value":"boxer"}]},{"id":6,"name":"block","type":"block","class":"block","x":3136,"y":192,"width":32,"height":32,"point":false,"rotation":0,"visible":true,"properties":[{"name":"contents","type":"string","value":"rocker"}]},{"id":7,"name":"card","type":"card","class":"card","x":208,"y":240,"width":0,"height":0,"point":true,"rotation":0,"visible":true},{"id":8,"name":"card","type":"card","class":"card","x":272,"y":240,"width":0,"height":0,"point":true,"rotation":0,"visible":true},{"id":9,"name":"card","type":"card","class":"card","x":336,"y":240,"width":0,"height":0,"point":true,"rotation":0,"visible":true},{"id":10,"name":"card","type":"card","class":"card","x":1584,"y":240,"width":0,"height":0,"point":true,"rotation":0,"visible":true},{"id":11,"name":"card","type":"card","class":"card","x":1648,"y":240,"width":0,"height":0,"point":true,"rotation":0,"visible":true},{"id":12,"name":"ballspawner","type":"ballspawner","class":"ballspawner","x":1936,"y":240,"width":0,"height":0,"point":true,"rotation":0,"visible":true},{"id":13,"name":"card","type":"card","class":"card","x":2384,"y":240,"width":0,"height":0,"point":true,"rotation":0,"visible":true},{"id":14,"name":"card","type":"card","class":"card","x":2448,"y":240,"width":0,"height":0,"point":true,"rotation":0,"visible":true},{"id":15,"name":"card","type":"card","class":"card","x":3216,"y":240,"width":0,"height":0,"point":true,"rotation":0,"visible":true},{"id":16,"name":"card","type":"card","class":"card","x":3280,"y":240,"width":0,"height":0,"point":true,"rotation":0,"visible":true},{"id":17,"name":"card","type":"card","class":"card","x":3344,"y":240,"width":0,"height":0,"point":true,"rotation":0,"visible":true},{"id":18,"name":"card","type":"card","class":"card","x":3408,"y":240,"width":0,"height":0,"point":true,"rotation":0,"visible":true},{"id":19,"name":"card","type":"card","class":"card","x":3472,"y":240,"width":0,"height":0,"point":true,"rotation":0,"visible":true},{"id":20,"name":"card","type":"card","class":"card","x":3536,"y":240,"width":0,"height":0,"point":true,"rotation":0,"visible":true},{"id":21,"name":"card","type":"card","class":"card","x":3888,"y":240,"width":0,"height":0,"point":true,"rotation":0,"visible":true},{"id":22,"name":"card","type":"card","class":"card","x":3952,"y":240,"width":0,"height":0,"point":true,"rotation":0,"visible":true},{"id":23,"name":"card","type":"card","class":"card","x":4016,"y":240,"width":0,"height":0,"point":true,"rotation":0,"visible":true},{"id":24,"name":"spawn","type":"spawn","class":"spawn","x":80,"y":304,"width":0,"height":0,"point":true,"rotation":0,"visible":true},{"id":25,"name":"deco","type":"deco","class":"deco","x":112,"y":320,"width":0,"height":0,"point":true,"rotation":0,"visible":true,"properties":[{"name":"frame","type":"string","value":"sign_vfb_0"}]},{"id":26,"name":"deco","type":"deco","class":"deco","x":272,"y":320,"width":0,"height":0,"point":true,"rotation":0,"visible":true,"properties":[{"name":"frame","type":"string","value":"deco_stand_0"}]},{"id":27,"name":"mob","type":"mob","class":"mob","x":976,"y":320,"width":0,"height":0,"point":true,"rotation":0,"visible":true,"properties":[{"name":"variant","type":"string","value":"fanblock"}]},{"id":28,"name":"mob","type":"mob","class":"mob","x":1168,"y":320,"width":0,"height":0,"point":true,"rotation":0,"visible":true,"properties":[{"name":"variant","type":"string","value":"fanblock"}]},{"id":29,"name":"deco","type":"deco","class":"deco","x":1296,"y":320,"width":0,"height":0,"point":true,"rotation":0,"visible":true,"properties":[{"name":"frame","type":"string","value":"deco_floodlight_0"}]},{"id":30,"name":"mob","type":"mob","class":"mob","x":1648,"y":320,"width":0,"height":0,"point":true,"rotation":0,"visible":true,"properties":[{"name":"variant","type":"string","value":"fanblock"}]},{"id":31,"name":"checkpoint","type":"checkpoint","class":"checkpoint","x":2256,"y":320,"width":0,"height":0,"point":true,"rotation":0,"visible":true},{"id":32,"name":"mob","type":"mob","class":"mob","x":2480,"y":320,"width":0,"height":0,"point":true,"rotation":0,"visible":true,"properties":[{"name":"variant","type":"string","value":"fanblock"}]},{"id":33,"name":"mob","type":"mob","class":"mob","x":2640,"y":320,"width":0,"height":0,"point":true,"rotation":0,"visible":true,"properties":[{"name":"variant","type":"string","value":"fanblock"}]},{"id":34,"name":"mob","type":"mob","class":"mob","x":2800,"y":320,"width":0,"height":0,"point":true,"rotation":0,"visible":true,"properties":[{"name":"variant","type":"string","value":"fahne"}]},{"id":35,"name":"deco","type":"deco","class":"deco","x":2896,"y":320,"width":0,"height":0,"point":true,"rotation":0,"visible":true,"properties":[{"name":"frame","type":"string","value":"deco_stand_0"}]},{"id":36,"name":"mob","type":"mob","class":"mob","x":3248,"y":320,"width":0,"height":0,"point":true,"rotation":0,"visible":true,"properties":[{"name":"variant","type":"string","value":"fanblock"}]},{"id":37,"name":"mob","type":"mob","class":"mob","x":3408,"y":320,"width":0,"height":0,"point":true,"rotation":0,"visible":true,"properties":[{"name":"variant","type":"string","value":"fanblock"}]},{"id":38,"name":"mob","type":"mob","class":"mob","x":3568,"y":320,"width":0,"height":0,"point":true,"rotation":0,"visible":true,"properties":[{"name":"variant","type":"string","value":"fanblock"}]},{"id":39,"name":"deco","type":"deco","class":"deco","x":4016,"y":320,"width":0,"height":0,"point":true,"rotation":0,"visible":true,"properties":[{"name":"frame","type":"string","value":"bench_0"}]},{"id":40,"name":"flag","type":"flag","class":"flag","x":4112,"y":320,"width":0,"height":0,"point":true,"rotation":0,"visible":true}],"opacity":1,"visible":true,"x":0,"y":0,"draworder":"topdown"}]}